!!!!SEGMENT: pl-stab--77a--001_wygrzywalski-jozef--msza-kyrie.krn
!!!cenid: 18xx:3411
!!!COM: Wygrzywalski, Józef
!!!COM-rismID: pe30109448
!!!CDT: 1798-~1857
!!!CNT: Polish
!!!OPR: Msza
!!!OTL: Kyrie
!!!OMV: 001
!!!PDT:
!!!AGN:
!!!SMS-siglum: PL-STAb
!!!SMS-shelfmark: 77a
!!!SMS-shelfwork: M
!!!SMS-variant:
!!!SMS-altvar:
!!!NIFC-rismSourceID: 1001167521
!!!NIFC-islandoraID: pl-stab:4717
!!!URL-pdf-islandora: https://repozytorium.nifc.pl/islandora/object/pl-stab%3A4717/datastream/PDF/view
!!!URL-scan: https://polish.musicsources.pl/pl/lokalizacje/galeria/rekopisy/4558 @EN{Scan on Polish Music Herritage in Open Access Website} @PL{Skany w portalu Dziedzictwo Muzyki Polskiej w otwartym dostępie}
!!!ONB-nifc: UWAGA: części Mszy: 1. Kyrie, 2. Gloria, 3. Credo, 4. Sanctus, 5. Benedictus, 6. Agnus Dei. Na f. 1r głosu cl 2 zapisana partytura org dla części Gloria, pochodzącej z innej mszy.
!!!AIN: 1 alto 1 bass 2 clars 2 cor 1 organ 1 soprn 1 tenor 2 violn
!!!key: F
**kern	**fba	**dynam	**kern	**dynam	**kern	**dynam	**kern	**text	**kern	**kern	**text	**kern	**text	**dynam	**kern	**dynam	**kern	**dynam	**kern	**dynam	**kern	**dynam
*	*	*	*group4	*	*group4	*	*group3	*	*group3	*group3	*	*group3	*	*	*group2	*	*group2	*	*group1	*	*group1	*
*part11	*	*part11	*part10	*part10	*part9	*part9	*part8	*part8	*part7	*part6	*part6	*part5	*part5	*part5	*part4	*part4	*part3	*part3	*part2	*part2	*part1	*part1
*staff11	*	*	*staff10	*	*staff9	*	*staff8	*staff8	*staff7	*staff6	*staff6	*staff5	*staff5	*	*staff4	*	*staff3	*	*staff2	*	*staff1	*
*I"Organo	*	*	*I"Violino II	*	*I"Violino primo	*	*I"Baſso	*	*I"Tenor	*I"Alto	*	*I"Canto	*	*	*I"Corno 2do in F	*	*I"Corno 1mo in F	*	*I"Clarineto 2do	*	*I"Clarinetto 1mo in C	*
*I'org	*	*	*I'vl 2	*	*I'vl 1	*	*I'B	*	*I'T	*I'A	*	*I'S	*	*	*I'cor 2 in F	*	*I'cor 1 in F	*	*I'cl 2	*	*I'cl 1 in C	*
*Iorgan	*	*	*Ivioln	*	*Ivioln	*	*Ibass	*	*Itenor	*Ialto	*	*Isoprn	*	*	*Icor	*	*Icor	*	*Iclars	*	*Iclars	*
*ICklav	*	*	*ICstr	*	*ICstr	*	*ICvox	*	*ICvox	*ICvox	*	*ICvox	*	*	*ICbras	*	*ICbras	*	*ICww	*	*ICww	*
*IGcont	*	*	*IGacmp	*	*IGacmp	*	*IGcoro	*	*IGcoro	*IGcoro	*	*IGcoro	*	*	*IGacmp	*	*IGacmp	*	*IGacmp	*	*IGacmp	*
*	*	*	*	*	*	*	*oclefF3	*	*	*	*	*	*	*	*	*	*	*	*	*	*	*
*clefF4	*	*	*clefG2	*	*clefG2	*	*clefF4	*	*clefC4	*clefC3	*	*clefC1	*	*	*clefG2	*	*clefG2	*	*clefG2	*	*clefG2	*
*	*	*	*	*	*	*	*	*	*	*	*	*	*	*	*ITrd4c7	*	*ITrd4c7	*	*	*	*	*
*k[b-]	*	*	*k[b-]	*	*k[b-]	*	*k[b-]	*	*k[b-]	*k[b-]	*	*k[b-]	*	*	*k[b-]	*	*k[b-]	*	*k[b-]	*	*k[b-]	*
*F:	*	*	*F:	*	*F:	*	*F:	*	*F:	*F:	*	*F:	*	*	*F:	*	*F:	*	*F:	*	*F:	*
*M4/4	*	*	*M4/4	*	*M4/4	*	*M4/4	*	*M4/4	*M4/4	*	*M4/4	*	*	*M4/4	*	*M4/4	*	*M4/4	*	*M4/4	*
*met(c)	*	*	*met(c)	*	*met(c)	*	*met(c)	*	*met(c)	*met(c)	*	*met(c)	*	*	*met(c)	*	*met(c)	*	*met(c)	*	*met(c)	*
=1	=1	=1	=1	=1	=1	=1	=1	=1	=1	=1	=1	=1	=1	=1	=1	=1	=1	=1	=1	=1	=1	=1
*	*	*	*	*	*	*below	*	*	*	*	*	*	*	*	*	*	*	*	*	*	*	*
!LO:TX:b:i:t=Tasto piano	!	!	!	!	!	!	!LO:TX:a:t=9	!	!	!LO:TX:a:t=9	!	!LO:TX:a:t=9	!	!	!	!	!	!	!	!	!	!
!	!	!	!	!	!	!	!LO:TX:t=P:problem=błędnie klucz F3	!	!	!	!	!	!	!	!	!	!	!	!	!	!	!
!LO:TX:a:i:rj:t=Adagio	!	!	!LO:TX:a:i:t=Adagio	!	!LO:TX:a:i:t=adagio	!	!LO:TX:a:i:rj:t=Adagio	!	!LO:TX:t=P:problem=brak partii w źródle	!LO:TX:a:i:rj:t=Adagio	!	!LO:TX:a:i:rj:t=Adagio	!	!	!LO:TX:a:i:rj:t=Adagio	!LO:DY:b:rj	!LO:TX:a:i:rj:t=Adagio	!	!LO:TX:a:i:rj:t=Adagio	!	!LO:TX:a:i:rj:t=Adagio	!
4C/	.	.	2r	.	2r	.	1r	.	1ryy	1r	.	1r	.	.	4C/	p	4c/	p	2r	.	2r	.
!	!	!	!	!	!	!	!	!	!	!	!	!	!	!	!LO:N:vis=8	!	!LO:N:vis=8	!	!	!	!	!
8.C/L	.	.	.	.	.	.	.	.	.	.	.	.	.	.	8.C/L	.	8.c/L	.	.	.	.	.
16C/Jk	.	.	.	.	.	.	.	.	.	.	.	.	.	.	16C/Jk	.	16c/Jk	.	.	.	.	.
[2C/	.	.	8.r	.	8.r	.	.	.	.	.	.	.	.	.	[2C/	.	[2c/	.	8.r	pp	8.r	.
.	.	.	16c/KL	.	16e/KL	p	.	.	.	.	.	.	.	.	.	.	.	.	16cc\KL	.	16ee\KL	pp
.	.	.	8.d/	.	8.f/	.	.	.	.	.	.	.	.	.	.	.	.	.	8.dd\	.	8.ff\	.
.	.	.	16d#X/Jk	.	16f#X/Jk	.	.	.	.	.	.	.	.	.	.	.	.	.	16dd#X\Jk	.	16ff#X\Jk	.
=2	=2	=2	=2	=2	=2	=2	=2	=2	=2	=2	=2	=2	=2	=2	=2	=2	=2	=2	=2	=2	=2	=2
4C/]	.	.	4e/	.	4g/	.	1r	.	1ryy	1r	.	1r	.	.	4C/]	.	4c/]	.	4ee\	.	4gg\	.
!	!	!	!	!	!	!	!	!	!	!	!	!	!	!	!	!	!LO:N:vis=8	!	!	!	!	!
8.C/L	.	.	4r	.	4r	.	.	.	.	.	.	.	.	.	8.C/L	.	8.c/L	.	4r	.	4r	.
16C/Jk	.	.	.	.	.	.	.	.	.	.	.	.	.	.	16C/Jk	.	16c/Jk	.	.	.	.	.
[2C/	.	.	8.r	.	8.r	.	.	.	.	.	.	.	.	.	2C/	.	[2c/	.	8.r	.	8.r	.
!	!	!	!	!	!LO:TX:b:t=cre cen:problem=dynamics with extention lines	!LO:HP:t=cre cen:ext=s	!	!	!	!	!	!	!	!	!	!	!	!	!	!	!	!
.	.	.	16d#X/KL	.	16f#X/KL	<	.	.	.	.	.	.	.	.	.	.	.	.	16dd#X\KL	.	16ff#X\KL	.
!	!	!	!	!	!	!	!	!	!	!	!	!	!	!	!	!	!	!	!LO:N:vis=8	!	!	!
.	.	.	8.e/	.	8.g/	.	.	.	.	.	.	.	.	.	.	.	.	.	8.ee\	.	8.gg\	.
.	.	.	16f/Jk	.	16a/Jk	.	.	.	.	.	.	.	.	.	.	.	.	.	16ff\Jk	.	16aa\Jk	.
=3	=3	=3	=3	=3	=3	=3	=3	=3	=3	=3	=3	=3	=3	=3	=3	=3	=3	=3	=3	=3	=3	=3
4C/]	.	.	4g/	.	4b-/	.	1r	.	1ryy	1r	.	1r	.	.	4C/	.	4c/]	.	4gg\	.	4bb-\	.
!	!	!	!	!	!	!	!	!	!	!	!	!	!	!	!	!	!LO:N:vis=8	!	!	!	!	!
8.C/L	.	.	4r	.	4r	.	.	.	.	.	.	.	.	.	8.C/L	.	8.c/L	.	4r	.	4r	.
16C/Jk	.	.	.	.	.	.	.	.	.	.	.	.	.	.	16C/Jk	.	16c/Jk	.	.	.	.	.
2C/	.	.	8.r	.	8.r	.	.	.	.	.	.	.	.	.	2C/	.	2c/	.	8.r	.	8.r	.
.	.	.	16f#X/KL	<	16a/KL	.	.	.	.	.	.	.	.	.	.	.	.	.	16ff#X\KL	<	16aa\KL	<
.	.	.	8.g/	[	8.b-/	[	.	.	.	.	.	.	.	.	.	.	.	.	8.gg\	[	8.bb-\	.
.	.	.	16a/Jk	.	16cc/Jk	.	.	.	.	.	.	.	.	.	.	.	.	.	16aa\Jk	.	16ccc\Jk	[[
=4	=4	=4	=4	=4	=4	=4	=4	=4	=4	=4	=4	=4	=4	=4	=4	=4	=4	=4	=4	=4	=4	=4
*tremolo	*	*	*tremolo	*	*tremolo	*	*	*	*	*	*	*	*	*	*	*	*	*	*	*	*	*
*2\right	*	*	*	*	*2\right	*	*	*	*	*	*	*	*	*	*	*	*	*	*	*	*	*
!	!	!LO:DY:rj	!	!LO:DY:rj	!	!LO:DY:rj	!	!	!	!	!	!	!	!	!	!	!	!	!	!	!	!
8B-\L	6_ 4_ #2_	f	16b-LL 16g/	f	16cc#X\LL	f	1r	.	1ryy	1r	.	1r	.	.	1g	f	1g	f	1ee	ff	1bb-	f
.	.	.	16b- 16g/	.	16cc#\	.	.	.	.	.	.	.	.	.	.	.	.	.	.	.	.	.
8B-\	.	.	16b- 16g/	.	16cc#\	.	.	.	.	.	.	.	.	.	.	.	.	.	.	.	.	.
.	.	.	16b- 16g/	.	16cc#\	.	.	.	.	.	.	.	.	.	.	.	.	.	.	.	.	.
8B-\	.	.	16b- 16g/	.	16cc#\	.	.	.	.	.	.	.	.	.	.	.	.	.	.	.	.	.
.	.	.	16b- 16g/	.	16cc#\	.	.	.	.	.	.	.	.	.	.	.	.	.	.	.	.	.
8B-\J	.	.	16b- 16g/	.	16cc#\	.	.	.	.	.	.	.	.	.	.	.	.	.	.	.	.	.
.	.	.	16b-JJ 16g/	.	16cc#\JJ	.	.	.	.	.	.	.	.	.	.	.	.	.	.	.	.	.
*Xtremolo	*	*	*	*	*	*	*	*	*	*	*	*	*	*	*	*	*	*	*	*	*	*
8G\L	.	.	16cc#XLL 16g/	.	16ee\LL	.	.	.	.	.	.	.	.	.	.	.	.	.	.	.	.	.
.	.	.	16cc# 16g/	.	16ee\	.	.	.	.	.	.	.	.	.	.	.	.	.	.	.	.	.
8G\J	.	.	16cc# 16g/	.	16ee\	.	.	.	.	.	.	.	.	.	.	.	.	.	.	.	.	.
.	.	.	16cc#JJ 16g/	.	16ee\JJ	.	.	.	.	.	.	.	.	.	.	.	.	.	.	.	.	.
8E\L	.	.	16eeLL 16cc#\	.	16gg\LL	.	.	.	.	.	.	.	.	.	.	.	.	.	.	.	.	.
.	.	.	16ee 16cc#\	.	16gg\	.	.	.	.	.	.	.	.	.	.	.	.	.	.	.	.	.
8E\J	.	.	16ee 16cc#\	.	16gg\	.	.	.	.	.	.	.	.	.	.	.	.	.	.	.	.	.
.	X X X	.	16eeJJ 16cc#\	.	16gg\JJ	.	.	.	.	.	.	.	.	.	.	.	.	.	.	.	.	.
*	*	*	*Xtremolo	*	*Xtremolo	*	*	*	*	*	*	*	*	*	*	*	*	*	*	*	*	*
=5	=5	=5	=5	=5	=5	=5	=5	=5	=5	=5	=5	=5	=5	=5	=5	=5	=5	=5	=5	=5	=5	=5
!LO:TX:a:i:t=unison	!	!	!LO:TX:a:t=P:problem=mixed beam	!	!LO:TX:a:t=P:problem=mixed beam	!	!	!	!	!	!	!	!	!	!	!	!	!	!	!	!	!
8D-X\L	.	.	8.gg\L	.	8.bb-\L	.	1r	.	1ryy	1r	.	1r	.	.	4g\	.	4g\	.	8ee\	.	8bb-\	.
8D-\	.	.	.	.	.	.	.	.	.	.	.	.	.	.	.	.	.	.	8r	.	8r	.
.	.	.	16d-X/K	.	16d-X^/K	.	.	.	.	.	.	.	.	.	.	.	.	.	.	.	.	.
*tremolo	*	*	*	*	*	*	*	*	*	*	*	*	*	*	*	*	*	*	*	*	*	*
16C\L	.	.	8.c/	.	8.c/	.	.	.	.	.	.	.	.	.	4r	.	4r	.	4r	.	4r	.
16C\	.	.	.	.	.	.	.	.	.	.	.	.	.	.	.	.	.	.	.	.	.	.
16BBn\	.	.	.	.	.	.	.	.	.	.	.	.	.	.	.	.	.	.	.	.	.	.
16BB\JJ	.	.	16Bn/Jk	.	16Bn^/Jk	.	.	.	.	.	.	.	.	.	.	.	.	.	.	.	.	.
*Xtremolo	*	*	*	*	*	*	*	*	*	*	*	*	*	*	*	*	*	*	*	*	*	*
8C\L	.	p	8.c/L	.	8.c/L	.	.	.	.	.	.	.	.	.	2r	.	2r	.	2r	.	2r	.
8B-\	6 4 2_	.	.	.	.	p	.	.	.	.	.	.	.	.	.	.	.	.	.	.	.	.
.	.	.	16e/K	.	16g/K	.	.	.	.	.	.	.	.	.	.	.	.	.	.	.	.	.
8A\	8 6 _	.	8.f/	.	8.a/	.	.	.	.	.	.	.	.	.	.	.	.	.	.	.	.	.
8G\J	10 8 _	.	.	.	.	.	.	.	.	.	.	.	.	.	.	.	.	.	.	.	.	.
.	X X X	.	16g/Jk	.	16b-/Jk	.	.	.	.	.	.	.	.	.	.	.	.	.	.	.	.	.
!LO:LB:g=original	!	!	!	!	!LO:LB:g=original	!	!	!	!	!	!	!	!	!	!	!	!	!	!	!	!	!
=6	=6	=6	=6	=6	=6	=6	=6	=6	=6	=6	=6	=6	=6	=6	=6	=6	=6	=6	=6	=6	=6	=6
!	!	!	!	!	!	!	!	!	!	!	!	!	!	!	!LO:TX:a:t=1	!	!LO:TX:a:t=1	!	!LO:TX:a:t=1	!	!LO:TX:a:t=1	!
8F\	10 8	.	8a/	.	8cc\	.	1r	.	1ryy	1r	.	1r	.	.	1r	.	1r	.	1r	.	1r	.
8r	.	.	8r	.	8r	.	.	.	.	.	.	.	.	.	.	.	.	.	.	.	.	.
4F#X\	-7 5	.	(4cc^<\	.	(4ee-X^<\	.	.	.	.	.	.	.	.	.	.	.	.	.	.	.	.	.
8G\	.	.	8b-\)	.	8dd\)	.	.	.	.	.	.	.	.	.	.	.	.	.	.	.	.	.
8r	.	.	8r	.	8r	.	.	.	.	.	.	.	.	.	.	.	.	.	.	.	.	.
4G#X\	7 5	.	4dd^<\	.	4ff\	.	.	.	.	.	.	.	.	.	.	.	.	.	.	.	.	.
!	!	!	!LO:LB:g=original	!	!	!	!	!	!	!	!	!	!	!	!	!	!	!	!	!	!	!
=7	=7	=7	=7	=7	=7	=7	=7	=7	=7	=7	=7	=7	=7	=7	=7	=7	=7	=7	=7	=7	=7	=7
8A\	5	.	8cc\	.	8ee\	.	1r	.	1ryy	1r	.	1r	.	.	2r	.	2r	.	4r	p	4r	.
8r	.	.	8r	.	8r	.	.	.	.	.	.	.	.	.	.	.	.	.	.	.	.	.
!	!	!	!LO:TX:a:t=t	!	!LO:TX:a:t=z	!	!	!	!	!	!	!	!	!	!	!	!	!	!	!	!	!
4B-\	6	.	4ee\	.	4gg\	<	.	.	.	.	.	.	.	.	.	.	.	.	4ee\	.	(4gg\	pp
4Bn\	6	.	4.ff\	.	4.aa-X\	[ fz >	.	.	.	.	.	.	.	.	2F/	.	4r	.	4ff\	.	4.gg#X^<\	.
4d-X\	-5 3	.	.	.	.	.	.	.	.	.	.	.	.	.	.	.	4f\	.	4ff\	.	.	.
.	.	.	8a-X^/	.	8bn 8f/	]	.	.	.	.	.	.	.	.	.	.	.	.	.	.	8bbn\)	.
!	!	!	!	!	!	!	!	!	!	!	!	!	!	!	!	!	!	!	!LO:LB:g=original	!	!LO:LB:g=original	!
=8	=8	=8	=8	=8	=8	=8	=8	=8	=8	=8	=8	=8	=8	=8	=8	=8	=8	=8	=8	=8	=8	=8
1c	8 6	.	(>4an/	.	(4cc\	p	1r	.	1ryy	1r	.	1r	.	.	[2C/	.	1c	.	(4aa\	p	(4ccc\	.
.	#7 #5	.	4a-X/	.	4bn\	.	.	.	.	.	.	.	.	.	.	.	.	.	4gg#X\	.	4bbn\	.
.	n7 n5	.	4g/	.	4b-X\	.	.	.	.	.	.	.	.	.	2C/]	.	.	.	4ggn\	.	4bb-X\	.
.	6 4	.	4f#X/)	.	4a\)	.	.	.	.	.	.	.	.	.	.	.	.	.	4ff#X\	.	4aa\)	.
=9	=9	=9	=9	=9	=9	=9	=9	=9	=9	=9	=9	=9	=9	=9	=9	=9	=9	=9	=9	=9	=9	=9
!LO:TX:t=P:problem=fermata na kresce taktowej	!	!	!	!	!	!	!	!	!	!	!	!	!	!	!LO:TX:t=P:problem=fermata na kresce taktowej	!	!LO:TX:t=P:problem=fermata na kresce taktowej	!	!	!	!	!
1C;	7 5	.	(>4g/	.	(4b-\	.	1r	.	1ryy	1r	.	1r	.	.	1C;	.	1c;	.	4gg\	.	(4bb-\	.
.	#4 #2	.	4d#X/	.	4f#X/	.	.	.	.	.	.	.	.	.	.	.	.	.	4dd#X\	.	4ff#X\	.
.	5 3	.	4e/	.	4g/	.	.	.	.	.	.	.	.	.	.	.	.	.	4ee\	.	4gg\	.
!	!	!	!LO:TX:t=P:problem=fermata na kresce taktowej	!	!LO:TX:t=P:problem=fermata na kresce taktowej	!	!	!	!	!	!	!	!	!	!	!	!	!	!LO:TX:t=P:problem=fermata na kresce taktowej	!	!	!
.	.	.	4B-;/)	.	4e;/)	.	.	.	.	.	.	.	.	.	.	.	.	.	4b-;\)	.	4ee\)	.
!	!	!	!	!	!	!	!	!	!	!	!	!	!	!	!LO:LB:g=original	!	!LO:LB:g=original	!	!	!	!	!
=10||	=10||	=10||	=10||	=10||	=10||	=10||	=10||	=10||	=10||	=10||	=10||	=10||	=10||	=10||	=10||	=10||	=10||	=10||	=10||	=10||	=10||	=10||
*	*	*	*	*	*	*	*oclefF3	*	*	*	*	*	*	*	*	*	*	*	*	*	*	*
*	*	*	*	*	*	*	*clefF4	*	*	*	*	*	*	*	*clefG2	*	*clefG2	*	*clefG2	*	*clefG2	*
*k[b-]	*	*	*k[b-]	*	*k[b-]	*	*k[b-]	*	*	*	*	*	*	*	*k[b-]	*	*k[b-]	*	*k[b-]	*	*k[b-]	*
*M4/4	*	*	*M4/4	*	*M4/4	*	*	*	*	*	*	*	*	*	*M4/4	*	*M4/4	*	*M4/4	*	*M4/4	*
*met(c)	*	*	*met(c)	*	*met(c)	*	*	*	*	*	*	*	*	*	*met(c)	*	*met(c)	*	*met(c)	*	*met(c)	*
!	!	!	!	!	!	!	!LO:TX:a:i:rj:t=Allo	!	!	!LO:TX:a:t=7	!	!	!	!	!LO:TX:a:t=7	!	!LO:TX:a:t=7	!	!LO:TX:a:t=7	!	!LO:TX:a:t=7	!
!	!	!	!	!	!	!	!LO:TX:t=P:problem=błędnie klucz F3	!	!	!	!	!	!	!	!	!	!	!	!LO:TX:b:t=7	!	!	!
!LO:TX:a:i:rj:t=Allo	!	!LO:DY:rj	!LO:TX:a:i:rj:t=Allo	!	!LO:TX:a:i:rj:t=Allo	!LO:DY:rj	!LO:TX:a:t=8	!	!	!LO:TX:a:i:rj:t=Allo	!	!LO:TX:a:i:t=Allo Solo	!	!	!LO:TX:a:i:rj:t=Allo	!	!LO:TX:a:i:rj:t=Allo	!	!LO:TX:a:i:rj:t=Allo	!	!LO:TX:a:i:rj:t=Allo	!
4F\	.	p	8r	p	8r	p	1r	.	1ryy	00r	.	8r	.	.	00r	.	00r	.	00r	.	00r	.
.	.	.	(8c/L	.	(8a/L	.	.	.	.	.	.	(8a\L	Ki-	.	.	.	.	.	.	.	.	.
4r	.	.	8Bn/)	.	8g#X/)	.	.	.	.	.	.	8g#X\)	.	.	.	.	.	.	.	.	.	.
.	.	.	8c'/J	.	8a'/J	.	.	.	.	.	.	8a'\J	-ri-	.	.	.	.	.	.	.	.	.
4r	.	.	4A/	.	4f/	.	.	.	.	.	.	4f\	-e	.	.	.	.	.	.	.	.	.
4FF/	.	.	4r	.	4c/	.	.	.	.	.	.	4r	.	.	.	.	.	.	.	.	.	.
!	!	!	!	!	!LO:LB:g=original	!	!	!	!	!	!	!	!	!	!	!	!	!	!	!	!	!
=11	=11	=11	=11	=11	=11	=11	=11	=11	=11	=11	=11	=11	=11	=11	=11	=11	=11	=11	=11	=11	=11	=11
4F\	.	.	8r	.	8r	.	1r	.	1ryy	.	.	8r	.	.	.	.	.	.	.	.	.	.
.	.	.	8a/L	.	(8cc\L	.	.	.	.	.	.	(8cc\L	Ki-	.	.	.	.	.	.	.	.	.
4r	.	.	8g#X/	.	8bn\)	.	.	.	.	.	.	8bn\)	.	.	.	.	.	.	.	.	.	.
.	.	.	8a/J	.	8cc'\J	.	.	.	.	.	.	8cc'\J	-ri-	.	.	.	.	.	.	.	.	.
4r	.	.	4f/	.	(4a\	.	.	.	.	.	.	(4a\	-e	.	.	.	.	.	.	.	.	.
4FF/	.	.	4r	.	4ff\	.	.	.	.	.	.	4ff\	e-	.	.	.	.	.	.	.	.	.
=12	=12	=12	=12	=12	=12	=12	=12	=12	=12	=12	=12	=12	=12	=12	=12	=12	=12	=12	=12	=12	=12	=12
4C\	7_ 5_	.	4b- 4g/	.	4ee^\	.	1r	.	1ryy	.	.	4ee\	.	.	.	.	.	.	.	.	.	.
4r	.	.	4r	.	4ee-X^\	.	.	.	.	.	.	4ee-X\	.	.	.	.	.	.	.	.	.	.
4E\	.	.	4b- 4g/	.	4dd^\	.	.	.	.	.	.	4dd\	.	.	.	.	.	.	.	.	.	.
4r	.	.	4r	.	4dd-X^\)	.	.	.	.	.	.	4dd-X\)	.	.	.	.	.	.	.	.	.	.
=13	=13	=13	=13	=13	=13	=13	=13	=13	=13	=13	=13	=13	=13	=13	=13	=13	=13	=13	=13	=13	=13	=13
4.E\	.	.	4.g/	.	(4.cc^<\	.	1r	.	1ryy	.	.	(4.cc\	-lei-	.	.	.	.	.	.	.	.	.
8C\	.	.	8e/	.	8b-\)	.	.	.	.	.	.	8b-\)	.	.	.	.	.	.	.	.	.	.
4F\	3	.	4f/	.	4a\	.	.	.	.	.	.	4a\	-son	.	.	.	.	.	.	.	.	.
4E\	3	.	4r	.	4r	.	.	.	.	.	.	4r	.	.	.	.	.	.	.	.	.	.
!LO:LB:g=original	!	!	!	!	!	!	!	!	!	!	!	!	!	!	!	!	!	!	!	!	!	!
=14	=14	=14	=14	=14	=14	=14	=14	=14	=14	=14	=14	=14	=14	=14	=14	=14	=14	=14	=14	=14	=14	=14
4D\	3	.	8r	.	8r	.	1r	.	1ryy	0r	.	8r	.	.	0r	.	0r	.	0r	.	0r	.
.	.	.	(8f/L	.	(8a/L	.	.	.	.	.	.	8a\L	Ki-	.	.	.	.	.	.	.	.	.
4r	.	.	8e/)	.	8g#X/)	.	.	.	.	.	.	8g#X\J	.	.	.	.	.	.	.	.	.	.
.	.	.	8f'/J	.	8a'/J	.	.	.	.	.	.	8a\	-ri-	.	.	.	.	.	.	.	.	.
4r	.	.	4d/	.	4f/	.	.	.	.	.	.	4f/	-e	.	.	.	.	.	.	.	.	.
4DD/	3	.	4r	.	4d/	.	.	.	.	.	.	4r	.	.	.	.	.	.	.	.	.	.
!	!	!	!LO:LB:g=original	!	!	!	!	!	!	!	!	!	!	!	!	!	!	!	!	!	!	!
=15	=15	=15	=15	=15	=15	=15	=15	=15	=15	=15	=15	=15	=15	=15	=15	=15	=15	=15	=15	=15	=15	=15
4D\	.	.	8r	.	8r	.	1r	.	1ryy	.	.	8r	.	.	.	.	.	.	.	.	.	.
.	.	.	8f/L	.	(8dd\L	.	.	.	.	.	.	8ddL 8cc\	Ki-	.	.	.	.	.	.	.	.	.
4r	.	.	8e/	.	8cc#X\)	.	.	.	.	.	.	8cc# 8b-\	.	.	.	.	.	.	.	.	.	.
.	.	.	8f/J	.	8dd'\J	.	.	.	.	.	.	8ddJ 8cc#\	-ri-	.	.	.	.	.	.	.	.	.
4r	.	.	4f/	.	4a/	.	.	.	.	.	.	4a\	-e	.	.	.	.	.	.	.	.	.
4DD/	.	.	4r	.	4ff\	.	.	.	.	.	.	4ff\	e-	.	.	.	.	.	.	.	.	.
!	!	!	!	!	!	!	!	!	!	!	!	!LO:LB:g=original	!	!	!	!	!	!	!	!	!	!
=16	=16	=16	=16	=16	=16	=16	=16	=16	=16	=16	=16	=16	=16	=16	=16	=16	=16	=16	=16	=16	=16	=16
4EE/	6_ 4_	.	4cc\	.	4ee\	.	1r	.	1ryy	1r	.	(4ee\	-lei-	.	1r	.	1r	.	1r	.	1r	.
8E\L	.	.	8.c/L	.	8.a/L	.	.	.	.	.	.	4a\	.	.	.	.	.	.	.	.	.	.
8E\J	.	.	.	.	.	.	.	.	.	.	.	.	.	.	.	.	.	.	.	.	.	.
.	.	.	16c/Jk	.	16a/Jk	.	.	.	.	.	.	.	.	.	.	.	.	.	.	.	.	.
4E\	.	.	4e/	.	4cc/	<	.	.	.	.	.	4cc\	.	.	.	.	.	.	.	.	.	.
4E\	5 #	.	4d/	.	4bnt</	[	.	.	.	.	.	4bn\)	.	.	.	.	.	.	.	.	.	.
=17	=17	=17	=17	=17	=17	=17	=17	=17	=17	=17	=17	=17	=17	=17	=17	=17	=17	=17	=17	=17	=17	=17
!	!	!	!	!	!	!	!	!	!	!	!	!	!	!	!LO:TX:a:t=Solo	!	!LO:TX:a:t=Solo	!	!	!	!	!
4AA/	.	.	4c/	.	4a/	.	1r	.	1ryy	4r	.	4a\	-son	.	4r	.	4r	.	4r	.	4r	f
!	!	!	!	!LO:DY:rj	!	!	!	!	!	!	!	!	!	!	!	!	!	!	!	!	!	!
4r	.	.	8.aL 8.A/	f	8.aaL 8.a\	f	.	.	.	8a\	Ki-	4r	.	.	8.A/L	.	8.a\L	.	8a\L	.	8.aa\L	.
.	.	.	.	.	.	.	.	.	.	8a\	-ri-	.	.	.	.	.	.	.	8a\J	.	.	.
.	.	.	16aJk 16A/	.	16aaJk 16a\	.	.	.	.	.	.	.	.	.	16A/Jk	.	16a\Jk	.	.	.	16aa\Jk	.
2r	.	.	4a 4A/	.	4aa 4a\	.	.	.	.	4a\	-e	2r	.	.	4A/	.	4a\	.	4a\	.	4aa\	.
!	!	!	!	!	!	!	!	!	!	!	!	!	!	!LO:DY:b	!	!	!	!	!	!	!	!
.	.	f	4a 4A/	.	4aa 4a\	.	.	.	.	4a\	e-	.	.	f	4A/	.	4a\	.	4a\	.	4aa\	.
!	!	!	!	!	!LO:LB:g=original	!	!	!	!	!	!	!	!	!	!	!	!	!	!	!	!	!
=18	=18	=18	=18	=18	=18	=18	=18	=18	=18	=18	=18	=18	=18	=18	=18	=18	=18	=18	=18	=18	=18	=18
*	*	*	*	*	*	*	*	*	*	*2\right	*	*	*	*	*	*	*2\right	*	*2\right	*	*2\right	*
4.E\	5_ 3_	.	8r	.	8bb-\	.	4.c\	Ki-	1ryy	2b-\	-lei-	4.ee\	Ki-	.	2c/	.	2g\	.	2ee\	f	2bb-\	.
.	.	.	8gL 8c/	.	4bbn^<\	.	.	.	.	.	.	.	.	.	.	.	.	.	.	.	.	.
.	.	.	8g 8c/	.	.	.	.	.	.	.	.	.	.	.	.	.	.	.	.	.	.	.
8C\	.	.	8gJ 8c/	.	8ccc\	.	8c\	-ri-	.	.	.	8ee\	-ri-	.	.	.	.	.	.	.	.	.
4.G\	.	.	8r	.	8ddd\	.	4c\	-e	.	4b-\	-son	4ee\	-e	.	2c/	.	2g\	.	2ee\	.	2bb-\	.
.	.	.	8gL 8c/	.	4ccc^<\	.	.	.	.	.	.	.	.	.	.	.	.	.	.	.	.	.
.	.	.	8g 8c/	.	.	.	4c\	e-	.	4b-\	e-	4ee\	e-	.	.	.	.	.	.	.	.	.
8E\	.	.	8gJ 8c/	.	8gg\	.	.	.	.	.	.	.	.	.	.	.	.	.	.	.	.	.
=19	=19	=19	=19	=19	=19	=19	=19	=19	=19	=19	=19	=19	=19	=19	=19	=19	=19	=19	=19	=19	=19	=19
*	*	*	*	*	*	*	*2\right	*	*	*	*	*2\right	*	*	*	*	*	*	*	*	*	*
4.F\	3_	.	8r	.	8bb-\	.	2F\	-lei-	1ryy	2a\	-lei-	2ff\	-lei-	.	4F/	.	4f\	.	4cc\	.	4aa\	.
.	.	.	8aL 8c/	.	4aa^<\	.	.	.	.	.	.	.	.	.	.	.	.	.	.	.	.	.
.	.	.	8a 8c/	.	.	.	.	.	.	.	.	.	.	.	4C/	.	4c\	.	4c/	.	4cc\	.
8C\	.	.	8aJ 8c/	.	8ee\	.	.	.	.	.	.	.	.	.	.	.	.	.	.	.	.	.
4.A\	.	.	8r	.	8gg\	.	4F\	-son	.	4a\	-son	4ff\	-son	.	4F/	.	4f\	.	4f/	.	4ff\	.
.	.	.	8aL 8c/	.	4ff^<\	.	.	.	.	.	.	.	.	.	.	.	.	.	.	.	.	.
.	.	.	8a 8c/	.	.	.	4r	.	.	4r	.	4r	.	.	4G/	.	4a\	.	4a/	.	4aa\	.
8F\	.	.	8aJ 8c/	.	8dd\	.	.	.	.	.	.	.	.	.	.	.	.	.	.	.	.	.
=20	=20	=20	=20	=20	=20	=20	=20	=20	=20	=20	=20	=20	=20	=20	=20	=20	=20	=20	=20	=20	=20	=20
*	*	*	*	*	*	*	*	*ij	*	*	*	*	*ij	*	*	*	*	*	*	*	*	*
4.G\	3_	.	8r	.	8dd\	.	4.E\	Ki-	1ryy	4.g\	Ki-	4.b-\	Ki-	.	2c/	.	2g\	.	2b-/	.	2gg\	.
.	.	.	8b-L 8c/	.	4cc^<\	.	.	.	.	.	.	.	.	.	.	.	.	.	.	.	.	.
.	.	.	8b- 8c/	.	.	.	.	.	.	.	.	.	.	.	.	.	.	.	.	.	.	.
8C\	.	.	8b-J 8c/	.	8bn\	.	8E\	-ri-	.	8g\	-ri-	8b-\	-ri-	.	.	.	.	.	.	.	.	.
4.B-\	.	.	8r	.	8dd\	.	4E\	-e	.	4g\	-e	4b-\	-e	.	2c/	.	2g\	.	2g/	.	2ee\	.
.	.	.	8b-L 8c/	.	4cc^<\	.	.	.	.	.	.	.	.	.	.	.	.	.	.	.	.	.
.	.	.	8b- 8c/	.	.	.	4E\	e-	.	4g\	e-	4b-\	e-	.	.	.	.	.	.	.	.	.
8C\	.	.	8b-J 8c/	.	8g\	.	.	.	.	.	.	.	.	.	.	.	.	.	.	.	.	.
=21	=21	=21	=21	=21	=21	=21	=21	=21	=21	=21	=21	=21	=21	=21	=21	=21	=21	=21	=21	=21	=21	=21
4.A\	6_	.	8r	.	8dd\	.	2F\	-lei-	1ryy	2f\	-lei-	2a\	-lei-	.	2A/	.	2f\	.	2a/	.	2ff\	.
.	.	.	8aL 8c/	.	4cc^<\	.	.	.	.	.	.	.	.	.	.	.	.	.	.	.	.	.
.	.	.	8a 8c/	.	.	.	.	.	.	.	.	.	.	.	.	.	.	.	.	.	.	.
8C\	.	.	8aJ 8c/	.	8bn\	.	.	.	.	.	.	.	.	.	.	.	.	.	.	.	.	.
4.F\	.	.	8r	.	8dd\	.	2F\	-son	.	4f\	-son	4a\	-son	.	2A/	.	2f\	.	2cc\	.	2aa\	.
*	*	*	*	*	*	*	*	*Xij	*	*	*	*	*	*	*	*	*	*	*	*	*	*
.	.	.	8aL 8c/	.	4cc^<\	.	.	.	.	.	.	.	.	.	.	.	.	.	.	.	.	.
.	.	.	8a 8c/	.	.	.	.	.	.	4r	.	4r	.	.	.	.	.	.	.	.	.	.
8C\	.	.	8aJ 8c/	.	8f/	.	.	.	.	.	.	.	.	.	.	.	.	.	.	.	.	.
!LO:LB:g=original	!	!	!LO:LB:g=original	!	!	!	!	!	!	!LO:LB:g=original	!	!	!	!	!	!	!	!	!	!	!	!
=22	=22	=22	=22	=22	=22	=22	=22	=22	=22	=22	=22	=22	=22	=22	=22	=22	=22	=22	=22	=22	=22	=22
*	*	*	*	*	*	*	*	*	*	*	*ij	*	*	*	*	*	*	*	*	*	*	*
4.E\	5_ 3_	.	8r	.	8bb-\	.	4.c\	Ki-	1ryy	4.b-\	Ki-	4.ee\	Ki-	.	2c/	.	2g\	.	2ee\	.	2bb-\	.
.	.	.	8gL 8c/	.	4bbn^<\	.	.	.	.	.	.	.	.	.	.	.	.	.	.	.	.	.
.	.	.	8g 8c/	.	.	.	.	.	.	.	.	.	.	.	.	.	.	.	.	.	.	.
8C\	.	.	8gJ 8c/	.	8ccc\	.	8c\	-ri-	.	8b-\	-ri-	8ee\	-ri-	.	.	.	.	.	.	.	.	.
4.G\	.	.	8r	.	8ddd\	.	4c\	-e	.	4b-\	-e	4ee\	-e	.	2c/	.	2g\	.	2ee\	.	2bb-\	.
.	.	.	8gL 8c/	.	4ccc^<\	.	.	.	.	.	.	.	.	.	.	.	.	.	.	.	.	.
.	.	.	8g 8c/	.	.	.	4c\	e-	.	4b-\	e-	4ee\	e-	.	.	.	.	.	.	.	.	.
8E\	.	.	8gJ 8c/	.	8gg\	.	.	.	.	.	.	.	.	.	.	.	.	.	.	.	.	.
!	!	!	!	!	!LO:LB:g=original	!	!LO:LB:g=original	!	!	!	!	!	!	!	!	!	!	!	!	!	!	!
=23	=23	=23	=23	=23	=23	=23	=23	=23	=23	=23	=23	=23	=23	=23	=23	=23	=23	=23	=23	=23	=23	=23
4.F\	3_	.	8r	.	8bb-\	.	2F\	-lei-	1ryy	2a\	-lei-	2ff\	-lei-	.	4F/	.	4f\	.	4cc\	.	4aa\	.
.	.	.	8aL 8c/	.	4aa^<\	.	.	.	.	.	.	.	.	.	.	.	.	.	.	.	.	.
.	.	.	8a 8c/	.	.	.	.	.	.	.	.	.	.	.	4C/	.	4c\	.	4c/	.	4cc\	.
8C\	.	.	8aJ 8c/	.	8ee\	.	.	.	.	.	.	.	.	.	.	.	.	.	.	.	.	.
4.A\	.	.	8r	.	8gg\	.	4F\	-son	.	4a\	-son	4ff\	-son	.	4F/	.	4f\	.	4f/	.	4ff\	.
.	.	.	8aL 8c/	.	4ff^<\	.	.	.	.	.	.	.	.	.	.	.	.	.	.	.	.	.
.	.	.	8a 8c/	.	.	.	4r	.	.	4r	.	4r	.	.	4A/	.	4a\	.	4a/	.	4aa\	.
8F\	.	.	8aJ 8c/	.	8dd\	.	.	.	.	.	.	.	.	.	.	.	.	.	.	.	.	.
!	!	!	!	!	!	!	!	!	!	!	!	!	!	!	!	!	!	!	!LO:LB:g=original	!	!LO:LB:g=original	!
=24	=24	=24	=24	=24	=24	=24	=24	=24	=24	=24	=24	=24	=24	=24	=24	=24	=24	=24	=24	=24	=24	=24
*	*	*	*	*	*	*	*	*	*	*	*	*	*	*	*2\right	*	*	*	*	*	*	*
4.D\	4_ 3_	.	8r	.	8aan\	.	4.G\	Ki-	1ryy	4.bn\	Ki-	4.ff\	Ki-	.	2g\	.	2g\	.	2bn\	.	2ff\	.
.	.	.	8bnL 8f/	.	4gg^<\	.	.	.	.	.	.	.	.	.	.	.	.	.	.	.	.	.
.	.	.	8b 8f/	.	.	.	.	.	.	.	.	.	.	.	.	.	.	.	.	.	.	.
8GG/	.	.	8bJ 8f/	.	8dd\	.	8G\	-ri-	.	8b\	-ri-	8ff\	-ri-	.	.	.	.	.	.	.	.	.
4.D\	.	.	8r	.	8gg\	.	4G\	-e	.	4b\	-e	4ff\	-e	.	2g\	.	2g\	.	2b\	.	2ff\	.
.	.	.	8bL 8f/	.	4ff/	.	.	.	.	.	.	.	.	.	.	.	.	.	.	.	.	.
.	.	.	8b 8f/	.	.	.	4G\	e-	.	4b\	e-	4ff\	e-	.	.	.	.	.	.	.	.	.
*	*	*	*	*	*	*	*	*	*	*	*	*	*Xij	*	*	*	*	*	*	*	*	*
8G\	.	.	8bJ 8f/	.	8dd\	.	.	.	.	.	.	.	.	.	.	.	.	.	.	.	.	.
!	!	!	!	!	!	!	!	!	!	!	!	!LO:LB:g=original	!	!	!	!	!	!	!	!	!	!
=25	=25	=25	=25	=25	=25	=25	=25	=25	=25	=25	=25	=25	=25	=25	=25	=25	=25	=25	=25	=25	=25	=25
*	*	*	*	*	*	*	*	*	*	*	*	*	*	*	*tremolo	*	*tremolo	*	*	*	*	*
8C\L	3_	.	8cc\L	.	8ee\L	.	2c\	-lei-	1ryy	2cc\	-lei-	2ee\	-lei-	.	8c/L	.	8g\L	.	8cc'\L	.	8ee'\L	.
8c\	.	.	16ccc\L	.	16eee\L	.	.	.	.	.	.	.	.	.	8c/	.	8g\	.	8ee'\	.	8ccc'\	.
.	.	.	16ccc\JJ	.	16eee\JJ	.	.	.	.	.	.	.	.	.	.	.	.	.	.	.	.	.
8c\	.	.	16bbn\LL	.	16ddd\LL	.	.	.	.	.	.	.	.	.	8c/	.	8g\	.	8dd'\	.	8bbn'\	.
.	X	.	16bb\	.	16ddd\	.	.	.	.	.	.	.	.	.	.	.	.	.	.	.	.	.
8c\J	.	.	16aa\	.	16ccc\	.	.	.	.	.	.	.	.	.	8c/J	.	8g\J	.	8cc'\J	.	8aa'\J	.
.	.	.	16aa\JJ	.	16ccc\JJ	.	.	.	.	.	.	.	.	.	.	.	.	.	.	.	.	.
*	*	*	*tremolo	*	*	*	*	*	*	*	*	*	*	*	*	*	*	*	*	*	*	*
8c\L	.	.	16gg\LL	.	16bbn\LL	.	2c\	-so(n)	.	2cc\	-son	2ee\	-son	.	8c/L	.	8g\L	.	8bn'\L	.	8gg'\L	.
*	*	*	*	*	*	*	*	*	*	*	*Xij	*	*	*	*	*	*	*	*	*	*	*
.	.	.	16gg\	.	16bb\	.	.	.	.	.	.	.	.	.	.	.	.	.	.	.	.	.
8c\	.	.	16ff\	.	16aa\	.	.	.	.	.	.	.	.	.	8c/	.	8g\	.	8a'\	.	8ff'\	.
.	.	.	16ff\	.	16aa\JJ	.	.	.	.	.	.	.	.	.	.	.	.	.	.	.	.	.
8c\	.	.	16ee\	.	16gg\LL	.	.	.	.	.	.	.	.	.	8c/	.	8g\	.	8g'\	.	8ee'\	.
.	.	.	16ee\	.	16gg\	.	.	.	.	.	.	.	.	.	.	.	.	.	.	.	.	.
8c\J	.	.	16dd\	.	16ff#X\	.	.	.	.	.	.	.	.	.	8c/J	.	8g\J	.	8f#X'\J	.	8dd'\J	.
.	.	.	16dd\JJ	.	16ff#\JJ	.	.	.	.	.	.	.	.	.	.	.	.	.	.	.	.	.
*	*	*	*Xtremolo	*	*	*	*	*	*	*	*	*	*	*	*Xtremolo	*	*Xtremolo	*	*	*	*	*
!	!	!	!	!	!	!	!	!	!	!	!	!	!	!	!	!	!LO:LB:g=original	!	!	!	!	!
=26	=26	=26	=26	=26	=26	=26	=26	=26	=26	=26	=26	=26	=26	=26	=26	=26	=26	=26	=26	=26	=26	=26
4.d\	4_ 3_	.	8r	.	8aan\L	.	4.G\	Ki-	1ryy	4.bn\	Ki-	4.ff\	Ki-	.	2g\	.	2g\	.	2bn\	.	2ff\	.
.	.	.	8bnL 8f/	.	16gg\L	.	.	.	.	.	.	.	.	.	.	.	.	.	.	.	.	.
.	.	.	.	.	16gg\JJ	.	.	.	.	.	.	.	.	.	.	.	.	.	.	.	.	.
.	.	.	8b 8f/	.	8gg\L	.	.	.	.	.	.	.	.	.	.	.	.	.	.	.	.	.
8G\	.	.	8bJ 8f/	.	8dd\J	.	8G\	-ri-	.	8b\	-ri-	8ff\	-ri-	.	.	.	.	.	.	.	.	.
*tremolo	*	*	*	*	*	*	*	*	*	*	*	*	*	*	*	*	*	*	*	*	*	*
!	!	!	!	!	!LO:TX:t=P:problem=pomazany takt, trudno odczytać wysokości dźwięków	!	!	!	!	!	!	!	!	!	!	!	!	!	!	!	!	!
8Bn\L	.	.	8r	.	8aan\L	.	4G\	-e-	.	4b\	-e-	4ff\	-e-	.	2g\	.	2g\	.	2b\	.	2ff\	p
8B\	.	.	8fL 8G/	.	16gg\L	.	.	.	.	.	.	.	.	.	.	.	.	.	.	.	.	.
.	.	.	.	.	16ff\JJ	.	.	.	.	.	.	.	.	.	.	.	.	.	.	.	.	.
8B\	.	.	8f 8G/	.	8ff\L	.	4G\	-lei-	.	4b\	-lei-	4ff\	-lei-	.	.	.	.	.	.	.	.	.
8B\J	.	.	8fJ 8G/	.	8bn\J	.	.	.	.	.	.	.	.	.	.	.	.	.	.	.	.	.
*Xtremolo	*	*	*	*	*	*	*	*	*	*	*	*	*	*	*	*	*	*	*	*	*	*
!	!	!	!	!	!LO:LB:g=original	!	!	!	!	!	!	!	!	!	!LO:LB:g=original	!	!	!	!	!	!	!
=27	=27	=27	=27	=27	=27	=27	=27	=27	=27	=27	=27	=27	=27	=27	=27	=27	=27	=27	=27	=27	=27	=27
*^	*	*	*	*	*	*	*	*	*	*	*	*	*	*	*	*	*	*	*	*	*	*
4c\	4ryy	5_ 3_	.	4e 4G/	.	4cc\	.	4C/	-son	1ryy	4cc\	-son	4ee\	-son	.	4c/	.	4g\	.	1cc	pp	1ee	.
4c/	4r	.	.	8e/	p	8ggW\	p	4r	.	.	4r	.	4r	.	.	4r	.	4r	.	.	.	.	.
.	.	.	.	8r	.	8r	.	.	.	.	.	.	.	.	.	.	.	.	.	.	.	.	.
4c/	2r	.	.	8e/	.	8ggW\	.	2r	.	.	2r	.	2r	.	.	2r	.	2r	.	.	.	.	.
.	.	.	.	8r	.	8r	.	.	.	.	.	.	.	.	.	.	.	.	.	.	.	.	.
4c/	.	.	.	8e/	.	8ggW\	.	.	.	.	.	.	.	.	.	.	.	.	.	.	.	.	.
.	.	.	.	8r	.	8r	.	.	.	.	.	.	.	.	.	.	.	.	.	.	.	.	.
!	!	!	!	!LO:LB:g=original	!	!	!	!	!	!	!	!	!	!	!	!	!	!	!	!	!	!	!
=28	=28	=28	=28	=28	=28	=28	=28	=28	=28	=28	=28	=28	=28	=28	=28	=28	=28	=28	=28	=28	=28	=28	=28
!	!	!	!	!	!	!	!	!	!	!	!	!	!	!	!	!LO:TX:a:t=12	!	!LO:TX:a:t=12	!	!	!	!	!
4B-/	4r	6_ 3_	.	8d/	.	[2gg\	.	2.B-\	Ki-	1ryy	2.dd\	Ki-	2.gg\	Ki-	.	00r	.	00r	.	1bn	.	1dd	.
.	.	.	.	8r	.	.	.	.	.	.	.	.	.	.	.	.	.	.	.	.	.	.	.
4B-/	4D\	.	.	8d/	.	.	.	.	.	.	.	.	.	.	.	.	.	.	.	.	.	.	.
.	.	.	.	8r	.	.	.	.	.	.	.	.	.	.	.	.	.	.	.	.	.	.	.
4B-/	4BB-\	.	.	8d/	.	(16gg\LL]	.	.	.	.	.	.	.	.	.	.	.	.	.	.	.	.	.
.	.	.	.	.	.	16bbn\	.	.	.	.	.	.	.	.	.	.	.	.	.	.	.	.	.
.	.	.	.	8r	.	16ddd\	.	.	.	.	.	.	.	.	.	.	.	.	.	.	.	.	.
.	.	.	.	.	.	16ccc\JJ	.	.	.	.	.	.	.	.	.	.	.	.	.	.	.	.	.
4B-/	4GG\	.	.	8d/	.	16bb\LL	.	4B-\	-ri-	.	4dd\	-ri-	4ff\	-ri-	.	.	.	.	.	.	.	.	.
.	.	.	.	.	.	16aa\	.	.	.	.	.	.	.	.	.	.	.	.	.	.	.	.	.
.	.	.	.	8r	.	16gg\	.	.	.	.	.	.	.	.	.	.	.	.	.	.	.	.	.
.	.	.	.	.	.	16ff\JJ	.	.	.	.	.	.	.	.	.	.	.	.	.	.	.	.	.
!LO:LB:g=original	!LO:LB:g=original	!	!	!	!	!	!	!	!	!	!	!	!	!	!	!	!	!	!	!	!	!	!
=29	=29	=29	=29	=29	=29	=29	=29	=29	=29	=29	=29	=29	=29	=29	=29	=29	=29	=29	=29	=29	=29	=29	=29
4A/	4AA\	5_ 3_	.	8c/	.	4ee\)	.	4A\	-e	1ryy	4cc\	-e	4ee\	-e	.	.	.	.	.	1a	.	1cc	.
.	.	.	.	8r	.	.	.	.	.	.	.	.	.	.	.	.	.	.	.	.	.	.	.
4A/	4r	.	.	8c/	.	8eeW\	.	4r	.	.	4r	.	4r	.	.	.	.	.	.	.	.	.	.
.	.	.	.	8r	.	8r	.	.	.	.	.	.	.	.	.	.	.	.	.	.	.	.	.
4A/	2r	.	.	8c/	.	8eeW\	.	2r	.	.	2r	.	2r	.	.	.	.	.	.	.	.	.	.
.	.	.	.	8r	.	8r	.	.	.	.	.	.	.	.	.	.	.	.	.	.	.	.	.
4A/	.	.	.	8c/	.	8eeW\	.	.	.	.	.	.	.	.	.	.	.	.	.	.	.	.	.
.	.	.	.	8r	.	8r	.	.	.	.	.	.	.	.	.	.	.	.	.	.	.	.	.
!	!	!	!	!	!	!	!	!	!	!	!LO:LB:g=original	!	!	!	!	!	!	!	!	!	!	!	!
=30	=30	=30	=30	=30	=30	=30	=30	=30	=30	=30	=30	=30	=30	=30	=30	=30	=30	=30	=30	=30	=30	=30	=30
4G#X/	4r	6_ 3_	.	8Bn/	.	[2ee\	.	2.G#X\	e-	1ryy	2.bn\	e-	2.ee\	e-	.	.	.	.	.	1g#X	.	1bn	.
.	.	.	.	8r	.	.	.	.	.	.	.	.	.	.	.	.	.	.	.	.	.	.	.
4G#/	4BB-\	.	.	8B/	.	.	.	.	.	.	.	.	.	.	.	.	.	.	.	.	.	.	.
.	.	.	.	8r	.	.	.	.	.	.	.	.	.	.	.	.	.	.	.	.	.	.	.
4G#/	4GG#X\	.	.	8B/	.	(16ee\LL]	.	.	.	.	.	.	.	.	.	.	.	.	.	.	.	.	.
.	.	.	.	.	.	16gg#X\	.	.	.	.	.	.	.	.	.	.	.	.	.	.	.	.	.
.	.	.	.	8r	.	16bb-\	.	.	.	.	.	.	.	.	.	.	.	.	.	.	.	.	.
.	.	.	.	.	.	16aa\JJ	.	.	.	.	.	.	.	.	.	.	.	.	.	.	.	.	.
4G#/	4EE\	.	.	8B/	.	16gg#\LL	.	4G#\	-lei-	.	4b\	-lei-	4dd\	-lei-	.	.	.	.	.	.	.	.	.
.	.	.	.	.	.	16ff\	.	.	.	.	.	.	.	.	.	.	.	.	.	.	.	.	.
.	.	.	.	8r	.	16ee\	.	.	.	.	.	.	.	.	.	.	.	.	.	.	.	.	.
.	.	.	.	.	.	16dd\JJ)	.	.	.	.	.	.	.	.	.	.	.	.	.	.	.	.	.
=31	=31	=31	=31	=31	=31	=31	=31	=31	=31	=31	=31	=31	=31	=31	=31	=31	=31	=31	=31	=31	=31	=31	=31
4F/	4FF\	6_ 3_	.	8A/	.	8cc\	.	4F\	-son	1ryy	4a\	-son	4cc\	-son	.	.	.	.	.	4a/	.	4a\	.
.	.	.	.	8r	.	8r	.	.	.	.	.	.	.	.	.	.	.	.	.	.	.	.	.
4F/	4ryy	.	.	8a/	.	8cc\	.	4r	.	.	4r	.	4r	.	.	.	.	.	.	4r	.	4r	.
.	.	.	.	8r	.	8r	.	.	.	.	.	.	.	.	.	.	.	.	.	.	.	.	.
4E/	2ryy	#6_ 3_	.	8b-X 8g/	.	8cc#X\	.	2E\	Ki-	.	2b-X\	Ki-	2cc#X\	Ki-	.	.	.	.	.	2gn/	.	2cc#X^<\	.
.	.	.	.	8r	.	8r	.	.	.	.	.	.	.	.	.	.	.	.	.	.	.	.	.
4E/	.	.	.	8b- 8g/	.	8cc#\	.	.	.	.	.	.	.	.	.	.	.	.	.	.	.	.	.
.	.	.	.	8r	.	8r	.	.	.	.	.	.	.	.	.	.	.	.	.	.	.	.	.
*v	*v	*	*	*	*	*	*	*	*	*	*	*	*	*	*	*	*	*	*	*	*	*	*
!	!	!	!	!	!	!	!LO:LB:g=original	!	!	!	!	!	!	!	!	!	!	!	!	!	!	!
=32	=32	=32	=32	=32	=32	=32	=32	=32	=32	=32	=32	=32	=32	=32	=32	=32	=32	=32	=32	=32	=32	=32
4F\	6_ 3_	.	8a 8f/	.	[2dd\	.	2F\	-ri-	1ryy	2a\	-ri-	2dd\	-ri-	.	00r	.	00r	.	2f/	.	2dd\	.
.	.	.	8r	.	.	.	.	.	.	.	.	.	.	.	.	.	.	.	.	.	.	.
4F\	.	.	8a 8f/	.	.	.	.	.	.	.	.	.	.	.	.	.	.	.	.	.	.	.
.	.	.	8r	.	.	.	.	.	.	.	.	.	.	.	.	.	.	.	.	.	.	.
!LO:TX:a:t=d	!	!	!	!	!	!	!	!	!	!	!	!	!	!	!	!	!	!	!	!	!	!
2F 2D\	.	.	2a 2f/	.	(16dd\LL]	.	2D\	-e	.	2a\	-e-	2ff\	-e	.	.	.	.	.	2a/	.	2ff\	.
.	.	.	.	.	16ff\	.	.	.	.	.	.	.	.	.	.	.	.	.	.	.	.	.
.	.	.	.	.	16bbn\	.	.	.	.	.	.	.	.	.	.	.	.	.	.	.	.	.
.	.	.	.	.	16aa\JJ	.	.	.	.	.	.	.	.	.	.	.	.	.	.	.	.	.
.	.	.	.	.	16gg\LL)	.	.	.	.	.	.	.	.	.	.	.	.	.	.	.	.	.
.	.	.	.	.	16ff\	.	.	.	.	.	.	.	.	.	.	.	.	.	.	.	.	.
.	.	.	.	.	16ee\	.	.	.	.	.	.	.	.	.	.	.	.	.	.	.	.	.
.	.	.	.	.	16dd\JJ	.	.	.	.	.	.	.	.	.	.	.	.	.	.	.	.	.
!	!	!	!	!	!LO:LB:g=original	!	!	!	!	!	!	!	!	!	!	!	!	!	!	!	!	!
=33	=33	=33	=33	=33	=33	=33	=33	=33	=33	=33	=33	=33	=33	=33	=33	=33	=33	=33	=33	=33	=33	=33
4G\	6 4	.	8e/L	.	8cc'\L	.	2.G\	e-	1ryy	2.cc\	-lei-	2.ee\	e-	.	.	.	.	.	2.g/	.	2.ee\	.
.	.	.	8d/	.	8bn'\	.	.	.	.	.	.	.	.	.	.	.	.	.	.	.	.	.
4r	.	.	8e/	.	8cc'\	.	.	.	.	.	.	.	.	.	.	.	.	.	.	.	.	.
.	.	.	8f/J	.	8dd'\J	.	.	.	.	.	.	.	.	.	.	.	.	.	.	.	.	.
4G\	6 4	.	8f#X/L	.	(8dd#X\L	.	.	.	.	.	.	.	.	.	.	.	.	.	.	.	.	.
.	.	.	8g/	.	8ee\)	.	.	.	.	.	.	.	.	.	.	.	.	.	.	.	.	.
4GG/	5 3	.	8fn/	.	(8a\	.	4G\	-lei-	.	4bn\	.	4dd\	-lei-	.	.	.	.	.	4f/	.	4dd\	.
.	.	.	8g/J	.	8b\J)	.	.	.	.	.	.	.	.	.	.	.	.	.	.	.	.	.
!	!	!	!	!	!	!	!	!	!	!	!	!	!	!	!	!	!	!	!LO:LB:g=original	!	!	!
=34	=34	=34	=34	=34	=34	=34	=34	=34	=34	=34	=34	=34	=34	=34	=34	=34	=34	=34	=34	=34	=34	=34
*^	*	*	*	*	*	*	*	*	*	*	*	*	*	*	*	*	*	*	*	*	*	*
!	!	!	!	!	!	!	!	!	!	!	!	!	!	!	!	!	!	!	!	!	!	!LO:N:vis=2	!
4r	4C\	5_ 3_	.	8e/	.	4cc\	.	4C/	-son	1ryy	4g\	-son	4cc\	-son	.	.	.	.	.	1cc	.	1ee	.
.	.	.	.	8r	.	.	.	.	.	.	.	.	.	.	.	.	.	.	.	.	.	.	.
4c/	4r	.	.	8e/	.	(16gg\LL	.	4r	.	.	4r	.	4r	.	.	.	.	.	.	.	.	.	.
.	.	.	.	.	.	16aa\	.	.	.	.	.	.	.	.	.	.	.	.	.	.	.	.	.
.	.	.	.	8r	.	16gg\)	.	.	.	.	.	.	.	.	.	.	.	.	.	.	.	.	.
.	.	.	.	.	.	16ff#X\JJ	.	.	.	.	.	.	.	.	.	.	.	.	.	.	.	.	.
!	!	!	!	!	!	!LO:TX:a:t=P:problem=mixed beam	!	!	!	!	!	!	!	!	!	!	!	!	!	!	!	!	!
4c/	2r	.	.	8e/	.	8gg'\L	.	2r	.	.	2r	.	2r	.	.	.	.	.	.	.	.	.	.
.	.	.	.	8r	.	8c'/J	.	.	.	.	.	.	.	.	.	.	.	.	.	.	.	.	.
4c/	.	.	.	8e/	.	(16gg\LL	.	.	.	.	.	.	.	.	.	.	.	.	.	.	.	.	.
.	.	.	.	.	.	16aa\	.	.	.	.	.	.	.	.	.	.	.	.	.	.	.	.	.
.	.	.	.	8r	.	16gg\)	.	.	.	.	.	.	.	.	.	.	.	.	.	.	.	.	.
.	.	.	.	.	.	16ff#\JJ	.	.	.	.	.	.	.	.	.	.	.	.	.	.	.	.	.
!	!	!	!	!LO:LB:g=original	!	!	!	!	!	!	!	!	!	!	!	!	!	!	!	!	!	!	!
=35	=35	=35	=35	=35	=35	=35	=35	=35	=35	=35	=35	=35	=35	=35	=35	=35	=35	=35	=35	=35	=35	=35	=35
!	!	!	!	!	!	!LO:TX:a:t=P:problem=mixed beam	!	!	!	!	!	!	!	!	!	!	!	!	!	!	!	!	!
4B-/	4r	6_ 3_	.	8d/	.	8gg'\L	.	2.B-\	Ki-	1ryy	2.dd\	Ki-	2.gg\	Ki-	.	.	.	.	.	1bn	.	1dd	.
.	.	.	.	8r	.	8e'/J	.	.	.	.	.	.	.	.	.	.	.	.	.	.	.	.	.
4B-/	4D\	.	.	8d/	.	(16gg\LL	.	.	.	.	.	.	.	.	.	.	.	.	.	.	.	.	.
.	.	.	.	.	.	16aa\	.	.	.	.	.	.	.	.	.	.	.	.	.	.	.	.	.
.	.	.	.	8r	.	16gg\)	.	.	.	.	.	.	.	.	.	.	.	.	.	.	.	.	.
.	.	.	.	.	.	16ff#X\JJ	.	.	.	.	.	.	.	.	.	.	.	.	.	.	.	.	.
4B-/	4BB-\	.	.	8d/	.	(16gg\LL	.	.	.	.	.	.	.	.	.	.	.	.	.	.	.	.	.
.	.	.	.	.	.	16bbn\	.	.	.	.	.	.	.	.	.	.	.	.	.	.	.	.	.
.	.	.	.	8r	.	16ddd\)	.	.	.	.	.	.	.	.	.	.	.	.	.	.	.	.	.
.	.	.	.	.	.	16ccc\JJ	.	.	.	.	.	.	.	.	.	.	.	.	.	.	.	.	.
4B-/	4GG\	.	.	8d/	.	(16bb\LL	.	4B-\	-ri-	.	4dd\	-ri-	4ff\	-ri-	.	.	.	.	.	.	.	.	.
.	.	.	.	.	.	16aa\	.	.	.	.	.	.	.	.	.	.	.	.	.	.	.	.	.
.	.	.	.	8r	.	16gg\)	.	.	.	.	.	.	.	.	.	.	.	.	.	.	.	.	.
.	.	.	.	.	.	16ff#\JJ	.	.	.	.	.	.	.	.	.	.	.	.	.	.	.	.	.
!	!	!	!	!	!	!	!	!	!	!	!	!	!LO:LB:g=original	!	!	!	!	!	!	!	!	!	!
=36	=36	=36	=36	=36	=36	=36	=36	=36	=36	=36	=36	=36	=36	=36	=36	=36	=36	=36	=36	=36	=36	=36	=36
4A/	4AA/	5_ 3_	.	8c/	.	4ee\	.	4A\	-e	1ryy	4cc\	-e	4ee\	-e	.	00r	.	00r	.	1a	.	1cc	.
.	.	.	.	8r	.	.	.	.	.	.	.	.	.	.	.	.	.	.	.	.	.	.	.
4A/	4r	.	.	8c/	.	(16ee\LL	.	4r	.	.	4r	.	4r	.	.	.	.	.	.	.	.	.	.
.	.	.	.	.	.	16ff\	.	.	.	.	.	.	.	.	.	.	.	.	.	.	.	.	.
.	.	.	.	8r	.	16ee\)	.	.	.	.	.	.	.	.	.	.	.	.	.	.	.	.	.
.	.	.	.	.	.	16dd#X\JJ	.	.	.	.	.	.	.	.	.	.	.	.	.	.	.	.	.
!	!	!	!	!	!	!LO:TX:a:t=P:problem=mixed beam	!	!	!	!	!	!	!	!	!	!	!	!	!	!	!	!	!
4A/	2r	.	.	8c/	.	8ee'\L	.	2r	.	.	2r	.	2r	.	.	.	.	.	.	.	.	.	.
.	.	.	.	8r	.	8e'/J	.	.	.	.	.	.	.	.	.	.	.	.	.	.	.	.	.
4A/	.	.	.	8c/	.	(16ee\LL	.	.	.	.	.	.	.	.	.	.	.	.	.	.	.	.	.
.	.	.	.	.	.	16ff\	.	.	.	.	.	.	.	.	.	.	.	.	.	.	.	.	.
.	.	.	.	8r	.	16ee\)	.	.	.	.	.	.	.	.	.	.	.	.	.	.	.	.	.
.	.	.	.	.	.	16dd#\JJ	.	.	.	.	.	.	.	.	.	.	.	.	.	.	.	.	.
!	!	!	!	!	!	!	!	!	!	!	!	!	!	!	!	!	!	!	!	!	!	!LO:LB:g=original	!
=37	=37	=37	=37	=37	=37	=37	=37	=37	=37	=37	=37	=37	=37	=37	=37	=37	=37	=37	=37	=37	=37	=37	=37
!	!	!	!	!	!	!	!	!	!	!	!	!	!	!	!	!	!	!	!	!	!	!LO:N:vis=2	!
4G#X/	4r	6_ 3_	.	8Bn/	.	8ee'\L	.	2.G#X\	e-	1ryy	2.bn\	e-	2.ee\	e-	.	.	.	.	.	1g#X	.	1bn	.
.	.	.	.	8r	.	8a'\J	.	.	.	.	.	.	.	.	.	.	.	.	.	.	.	.	.
4G#/	4BB-\	.	.	8B/	.	(16ee\LL	.	.	.	.	.	.	.	.	.	.	.	.	.	.	.	.	.
.	.	.	.	.	.	16ff\	.	.	.	.	.	.	.	.	.	.	.	.	.	.	.	.	.
.	.	.	.	8r	.	16ee\)	.	.	.	.	.	.	.	.	.	.	.	.	.	.	.	.	.
.	.	.	.	.	.	16dd#X\JJ	.	.	.	.	.	.	.	.	.	.	.	.	.	.	.	.	.
4G#/	4GG#X\	.	.	8B/	.	(16ee\LL	.	.	.	.	.	.	.	.	.	.	.	.	.	.	.	.	.
.	.	.	.	.	.	16gg#X\	.	.	.	.	.	.	.	.	.	.	.	.	.	.	.	.	.
.	.	.	.	8r	.	16bbn\)	.	.	.	.	.	.	.	.	.	.	.	.	.	.	.	.	.
.	.	.	.	.	.	16aa\JJ	.	.	.	.	.	.	.	.	.	.	.	.	.	.	.	.	.
4G#/	4EE\	.	.	8B/	.	(16gg#\LL	.	4G#\	-lei-	.	4b\	-lei-	4dd\	-lei-	.	.	.	.	.	.	.	.	.
.	.	.	.	.	.	16ff\	.	.	.	.	.	.	.	.	.	.	.	.	.	.	.	.	.
.	.	.	.	8r	.	16ee\)	.	.	.	.	.	.	.	.	.	.	.	.	.	.	.	.	.
.	.	.	.	.	.	16dd#\JJ	.	.	.	.	.	.	.	.	.	.	.	.	.	.	.	.	.
*v	*v	*	*	*	*	*	*	*	*	*	*	*	*	*	*	*	*	*	*	*	*	*	*
!LO:LB:g=original	!	!	!	!	!LO:LB:g=original	!	!	!	!	!	!	!	!	!	!	!	!	!	!	!	!	!
=38	=38	=38	=38	=38	=38	=38	=38	=38	=38	=38	=38	=38	=38	=38	=38	=38	=38	=38	=38	=38	=38	=38
4FF/	6 3	.	8A/	.	4cc\	.	2F\	-son	1ryy	2a\	-son	2.cc\	-son	.	.	.	.	.	2a/	.	2cc\	.
.	.	.	8r	.	.	.	.	.	.	.	.	.	.	.	.	.	.	.	.	.	.	.
4F\	.	.	8a/	.	(16cc\LL	.	.	.	.	.	.	.	.	.	.	.	.	.	.	.	.	.
.	.	.	.	.	16dd\	.	.	.	.	.	.	.	.	.	.	.	.	.	.	.	.	.
.	.	.	8r	.	16cc\	.	.	.	.	.	.	.	.	.	.	.	.	.	.	.	.	.
.	.	.	.	.	16bn\JJ)	.	.	.	.	.	.	.	.	.	.	.	.	.	.	.	.	.
4E\	.	.	8b-X 8g\	.	(16cc\LL	.	2E\	e-	.	2g\	e-	.	.	.	.	.	.	.	2gn/	.	2b-X\	.
.	.	.	.	.	16dd\	.	.	.	.	.	.	.	.	.	.	.	.	.	.	.	.	.
.	.	.	8r	.	16cc\	.	.	.	.	.	.	.	.	.	.	.	.	.	.	.	.	.
.	.	.	.	.	16b\JJ)	.	.	.	.	.	.	.	.	.	.	.	.	.	.	.	.	.
4E\	#6 3	.	8b- 8g\	.	(16cc\LL	.	.	.	.	.	.	4b-X\	e-	.	.	.	.	.	.	.	.	.
.	.	.	.	.	16dd\	.	.	.	.	.	.	.	.	.	.	.	.	.	.	.	.	.
.	.	.	8r	.	16cc\	.	.	.	.	.	.	.	.	.	.	.	.	.	.	.	.	.
.	.	.	.	.	16b-X\JJ)	.	.	.	.	.	.	.	.	.	.	.	.	.	.	.	.	.
=39	=39	=39	=39	=39	=39	=39	=39	=39	=39	=39	=39	=39	=39	=39	=39	=39	=39	=39	=39	=39	=39	=39
!	!	!	!	!	!	!LO:HP:rj:t=cres	!	!	!	!	!	!	!	!	!	!	!	!	!	!	!	!
8F\L	6 3_	.	8f/L	f	8a\L	<	8F\L	.	1ryy	8a\L	.	8a\L	-le-	.	.	.	.	.	4f/	.	4a\	.
8G\	.	.	16e/L	.	16cc#X\L	.	8G\	.	.	8b-X\	.	8cc#X\	.	.	.	.	.	.	.	.	.	.
.	.	.	16e/JJ	.	16cc#\JJ	.	.	.	.	.	.	.	.	.	.	.	.	.	.	.	.	.
8F\	6 _	.	16f/LL	.	16dd\LL	.	8F\	.	.	8a\	.	8dd\	.	.	.	.	.	.	4r	.	4r	.
.	.	.	16f/	.	16dd\	.	.	.	.	.	.	.	.	.	.	.	.	.	.	.	.	.
8C#X\J	10 _	.	16g/	.	16ee\	.	8C#X\J	.	.	8g\J	.	8ee\J	.	.	.	.	.	.	.	.	.	.
.	.	.	16g/JJ	.	16ee\JJ	.	.	.	.	.	.	.	.	.	.	.	.	.	.	.	.	.
4D\	10_ 8_	.	16b-/LL	.	16gg\LL	.	4D\	.	.	4f\	-lei-	8gg\L	.	.	.	.	.	.	2r	.	2r	.
!	!	!	!LO:TX:b:t=h	!	!	!	!	!	!	!	!	!	!	!	!	!	!	!	!	!	!	!
.	.	.	16b-/	.	16gg\	.	.	.	.	.	.	.	.	.	.	.	.	.	.	.	.	.
.	.	.	16a/	.	16ff\	.	.	.	.	.	.	8ff\	.	.	.	.	.	.	.	.	.	.
.	.	.	16a/JJ	.	16ff\JJ	.	.	.	.	.	.	.	.	.	.	.	.	.	.	.	.	.
8E\L	.	.	16g/LL	.	16ee\LL	.	8E\L	.	.	8g\L	.	8ee\	.	.	.	.	.	.	.	.	.	.
.	.	.	16g/	.	16ee\	.	.	.	.	.	.	.	.	.	.	.	.	.	.	.	.	.
8F\J	.	.	16f/	.	16dd\	.	8F\J	.	.	8a\J	.	8dd\J	.	.	.	.	.	.	.	.	.	.
.	.	.	16f/JJ	.	16dd\JJ	.	.	.	.	.	.	.	.	.	.	.	.	.	.	.	.	.
!	!	!	!	!	!	!	!	!	!	!LO:LB:g=original	!	!	!	!	!	!	!	!	!	!	!	!
=40	=40	=40	=40	=40	=40	=40	=40	=40	=40	=40	=40	=40	=40	=40	=40	=40	=40	=40	=40	=40	=40	=40
*tremolo	*	*	*	*	*	*	*	*	*	*	*	*	*	*	*	*	*	*	*	*	*	*
!	!	!	!	!	!	!LO:DY:rj:t=f.	!	!	!	!	!	!	!	!	!	!	!	!	!	!	!	!
8G\L	6 4	.	8e/L	.	8cc\L	f	2.G\	.	1ryy	2.cc\	.	8cc\L	.	.	4c/	.	4g\	.	4e/	.	4cc\	.
8G\	.	.	16e/L	.	16g'\L	.	.	.	.	.	.	8g\	.	.	.	.	.	.	.	.	.	.
.	.	.	16e/JJ	.	16g'\JJ	.	.	.	.	.	.	.	.	.	.	.	.	.	.	.	.	.
!	!	!	!	!	!	!	!	!	!	!	!	!	!	!	!LO:N:vis=8	!	!	!	!	!	!	!
8G\	.	.	8g/L	.	8ee\L	.	.	.	.	.	.	8ee\	.	.	8.c/L	.	8g\L	.	8.cc\L	.	8.ee\L	.
8G\J	.	.	16g/L	.	16cc'\L	.	.	.	.	.	.	8cc\J	.	.	.	.	8g\J	.	.	.	.	.
.	.	.	16g/JJ	.	16cc\JJ	.	.	.	.	.	.	.	.	.	16c/Jk	.	.	.	16cc\Jk	.	16ee\Jk	.
*Xtremolo	*	*	*tremolo	*	*	*	*	*	*	*	*	*	*	*	*	*	*	*	*	*	*	*
8GG/L	5 3	.	16ccLL 16g\	.	4gg\	.	.	.	.	.	.	4gg\	.	.	4g\	.	4g\	.	4bn\	.	4dd\	.
.	.	.	16cc 16g\	.	.	.	.	.	.	.	.	.	.	.	.	.	.	.	.	.	.	.
8GG/	.	.	16cc 16g\	.	.	.	.	.	.	.	.	.	.	.	.	.	.	.	.	.	.	.
.	.	.	16ccJJ 16g\	.	.	.	.	.	.	.	.	.	.	.	.	.	.	.	.	.	.	.
8GG/	.	.	16fLL 16G/	.	4bnt\	.	4G\	-lei-	.	4bn\	.	4bn\	-i-	.	4g\	.	4g\	.	8.b\L	.	8.ff\L	.
.	.	.	16f 16G/	.	.	.	.	.	.	.	.	.	.	.	.	.	.	.	.	.	.	.
8GG/J	.	.	16f 16G/	.	.	.	.	.	.	.	.	.	.	.	.	.	.	.	.	.	.	.
.	.	.	16fJJ 16G/	.	.	.	.	.	.	.	.	.	.	.	.	.	.	.	16b\Jk	.	16ff\Jk	.
.	.	.	.	.	16qqa/LL	.	.	.	.	.	.	.	.	.	.	.	.	.	.	.	.	.
.	.	.	.	.	16qqb/JJ	.	.	.	.	.	.	.	.	.	.	.	.	.	.	.	.	.
*	*	*	*Xtremolo	*	*	*	*	*	*	*	*	*	*	*	*	*	*	*	*	*	*	*
=41	=41	=41	=41	=41	=41	=41	=41	=41	=41	=41	=41	=41	=41	=41	=41	=41	=41	=41	=41	=41	=41	=41
4C/	3	.	8e/	.	4cc\	.	4C/	-son	1ryy	4g\	-son	4cc\	-son	.	4c/	.	4g\	.	4g/	.	4gg\	f
.	.	.	8r	.	.	.	.	.	.	.	.	.	.	.	.	.	.	.	.	f	.	.
4C/	.	.	4gg 4cc\	ff	4ccc 4ee\	.	4r	.	.	4r	.	4r	.	.	4c/	.	4g\	.	4ee\	.	4ccc\	.
!	!	!	!	!	!	!	!	!	!	!	!	!	!	!	!	!	!	!	!	!LO:DY:rj	!	!
4C/	.	.	4e 4G/	.	4c/	.	2r	.	.	2r	.	2r	.	.	4c/	.	4g\	.	4ee\	f	4ccc\	.
!	!	!	!	!	!LO:TX:a:i:t=Solo da a mol	!	!	!	!	!	!	!	!	!	!	!	!	!	!	!	!	!
4r	.	.	4r	.	4r	p	.	.	.	.	.	.	.	.	4r	.	4r	.	4r	.	4r	.
!	!	!	!	!	!	!	!LO:LB:g=original	!	!	!	!	!	!	!	!	!	!	!	!	!	!	!
=42	=42	=42	=42	=42	=42	=42	=42	=42	=42	=42	=42	=42	=42	=42	=42	=42	=42	=42	=42	=42	=42	=42
!	!	!	!	!LO:DY:rj	!	!	!LO:TX:a:t=7	!	!	!LO:TX:a:t=8	!	!	!	!	!LO:TX:a:t=7	!	!LO:TX:a:t=7	!	!	!LO:DY:rj	!	!LO:DY:rj
8r	.	p	8r	p	4.g/	.	00r	.	1ryy	00r	.	(4.g\	Chri-	.	00r	.	00r	.	1e	pp	[>1g	pp
8C/L	3	.	8eL 8G/	.	.	.	.	.	.	.	.	.	.	.	.	.	.	.	.	.	.	.
8C/	.	.	8e 8G/	.	.	.	.	.	.	.	.	.	.	.	.	.	.	.	.	.	.	.
8C/J	.	.	8eJ 8G/	.	16a/LL	.	.	.	.	.	.	16a\LL	.	.	.	.	.	.	.	.	.	.
.	.	.	.	.	16bn/JJ	.	.	.	.	.	.	16bn\JJ)	.	.	.	.	.	.	.	.	.	.
4C/	.	.	4e 4G/	.	8cc\	.	.	.	.	.	.	4cc\	-ste	.	.	.	.	.	.	.	.	.
.	.	.	.	.	8r	.	.	.	.	.	.	.	.	.	.	.	.	.	.	.	.	.
4r	.	.	4r	.	8ee\	.	.	.	.	.	.	4ee\	e-	.	.	.	.	.	.	.	.	.
.	.	.	.	.	8r	.	.	.	.	.	.	.	.	.	.	.	.	.	.	.	.	.
!	!	!	!	!	!LO:LB:g=original	!	!	!	!	!	!	!	!	!	!	!	!	!	!	!	!	!
=43	=43	=43	=43	=43	=43	=43	=43	=43	=43	=43	=43	=43	=43	=43	=43	=43	=43	=43	=43	=43	=43	=43
*	*	*	*rep	*	*	*	*	*	*	*	*	*	*	*	*	*	*	*	*	*	*	*
8r	.	.	8r	.	4.g/	.	.	.	1ryy	.	.	4.g\	-lei-	.	.	.	.	.	1e	.	1g_>	.
8C/L	.	.	8eL 8G/	.	.	.	.	.	.	.	.	.	.	.	.	.	.	.	.	.	.	.
8C/	.	.	8e 8G/	.	.	.	.	.	.	.	.	.	.	.	.	.	.	.	.	.	.	.
8C/J	.	.	8eJ 8G/	.	16a/LL	.	.	.	.	.	.	16a\LL	.	.	.	.	.	.	.	.	.	.
.	.	.	.	.	16bn/JJ	.	.	.	.	.	.	16b-\JJ	.	.	.	.	.	.	.	.	.	.
4C/	.	.	4e 4G/	.	8cc\	.	.	.	.	.	.	4cc\	-son	.	.	.	.	.	.	.	.	.
.	.	.	.	.	8r	.	.	.	.	.	.	.	.	.	.	.	.	.	.	.	.	.
4r	.	.	4r	.	8ee\	.	.	.	.	.	.	4ee\	.	.	.	.	.	.	.	.	.	.
.	.	.	.	.	8r	.	.	.	.	.	.	.	.	.	.	.	.	.	.	.	.	.
*	*	*	*Xrep	*	*	*	*	*	*	*	*	*	*	*	*	*	*	*	*	*	*	*
=44	=44	=44	=44	=44	=44	=44	=44	=44	=44	=44	=44	=44	=44	=44	=44	=44	=44	=44	=44	=44	=44	=44
*	*	*	*tremolo	*	*	*	*	*	*	*	*	*	*	*	*	*	*	*	*	*	*	*
4BBn/	6 3	.	8g/L	.	4gg\	.	.	.	1ryy	.	.	4gg\	Chri-	.	.	.	.	.	2f/	.	1g]	.
.	.	.	8g/	.	.	.	.	.	.	.	.	.	.	.	.	.	.	.	.	.	.	.
4r	.	.	8g/	.	8.dd\L	.	.	.	.	.	.	4dd\	-ste	.	.	.	.	.	.	.	.	.
.	.	.	8g/J	.	.	.	.	.	.	.	.	.	.	.	.	.	.	.	.	.	.	.
.	.	.	.	.	16dd\Jk	.	.	.	.	.	.	.	.	.	.	.	.	.	.	.	.	.
4C/	5 2	.	8g/L	.	4ff\	.	.	.	.	.	.	4ff\	e-	.	.	.	.	.	2e/	.	.	.
.	.	.	8g/	.	.	.	.	.	.	.	.	.	.	.	.	.	.	.	.	.	.	.
4r	.	.	8g/	.	8.ee\L	.	.	.	.	.	.	8ee\L	.	.	.	.	.	.	.	.	.	.
.	.	.	8g/J	.	.	.	.	.	.	.	.	8cc\J	.	.	.	.	.	.	.	.	.	.
.	.	.	.	.	16cc\Jk	.	.	.	.	.	.	.	.	.	.	.	.	.	.	.	.	.
*	*	*	*Xtremolo	*	*	*	*	*	*	*	*	*	*	*	*	*	*	*	*	*	*	*
!LO:LB:g=original	!	!	!	!	!	!	!	!	!	!	!	!	!	!	!	!	!	!	!LO:LB:g=original	!	!	!
=45	=45	=45	=45	=45	=45	=45	=45	=45	=45	=45	=45	=45	=45	=45	=45	=45	=45	=45	=45	=45	=45	=45
*	*	*	*2\right	*	*	*	*	*	*	*	*	*	*	*	*	*	*	*	*	*	*	*
4G\	6_ 4_	.	2cc 2g\	.	2ee\	.	.	.	1ryy	.	.	2ee\	-lei-	.	.	.	.	.	2.d/	.	2.g/	.
4GG/	.	.	.	.	.	.	.	.	.	.	.	.	.	.	.	.	.	.	.	.	.	.
4G\	5 3	.	4bn 4g\	.	8dd\	.	.	.	.	.	.	4dd\	-son	.	.	.	.	.	.	.	.	.
.	.	.	.	.	8r	.	.	.	.	.	.	.	.	.	.	.	.	.	.	.	.	.
4r	.	.	4r	.	4a\	.	.	.	.	.	.	4r	.	.	.	.	.	.	4r	.	4r	.
!	!	!	!	!	!	!	!	!	!	!	!	!LO:LB:g=original	!	!	!	!	!	!	!	!	!	!
=46	=46	=46	=46	=46	=46	=46	=46	=46	=46	=46	=46	=46	=46	=46	=46	=46	=46	=46	=46	=46	=46	=46
8r	.	.	8r	.	4.a/	.	0r	.	1ryy	00r	.	4.a\	Chri-	.	0r	.	0r	.	1f	.	[>1a	.
8D\L	5 3_	.	8fL 8A/	.	.	.	.	.	.	.	.	.	.	.	.	.	.	.	.	.	.	.
8D\	.	.	8f 8A/	.	.	.	.	.	.	.	.	.	.	.	.	.	.	.	.	.	.	.
8D\J	.	.	8fJ 8A/	.	16bn\LL	.	.	.	.	.	.	16bn\LL	.	.	.	.	.	.	.	.	.	.
.	.	.	.	.	16cc#X\JJ	.	.	.	.	.	.	16cc#X\JJ	.	.	.	.	.	.	.	.	.	.
4D\	.	.	4f 4A/	.	8dd\	.	.	.	.	.	.	4dd\	-ste	.	.	.	.	.	.	.	.	.
.	.	.	.	.	8r	.	.	.	.	.	.	.	.	.	.	.	.	.	.	.	.	.
4r	.	.	4r	.	8ff\	.	.	.	.	.	.	4ff\	e-	.	.	.	.	.	.	.	.	.
.	.	.	.	.	8r	.	.	.	.	.	.	.	.	.	.	.	.	.	.	.	.	.
=47	=47	=47	=47	=47	=47	=47	=47	=47	=47	=47	=47	=47	=47	=47	=47	=47	=47	=47	=47	=47	=47	=47
*	*	*	*rep	*	*	*	*	*	*	*	*	*	*	*	*	*	*	*	*	*	*	*
8r	.	.	8r	.	4.a\	.	.	.	1ryy	.	.	4.a\	-lei-	.	.	.	.	.	1f	.	2.a/]	.
8D\L	.	.	8fL 8A/	.	.	.	.	.	.	.	.	.	.	.	.	.	.	.	.	.	.	.
8D\	.	.	8f 8A/	.	.	.	.	.	.	.	.	.	.	.	.	.	.	.	.	.	.	.
8D\J	.	.	8fJ 8A/	.	16bn\LL	.	.	.	.	.	.	16bn\LL	.	.	.	.	.	.	.	.	.	.
.	X	.	.	.	16cc#X\JJ	.	.	.	.	.	.	16cc#X\JJ	.	.	.	.	.	.	.	.	.	.
4D\	.	.	4f 4A/	.	8dd\	.	.	.	.	.	.	4dd\	-son	.	.	.	.	.	.	.	.	.
.	.	.	.	.	8r	.	.	.	.	.	.	.	.	.	.	.	.	.	.	.	.	.
4r	.	.	4r	.	8aan\	.	.	.	.	.	.	4aa-X\	[[Ch]]	.	.	.	.	.	.	.	4a-X/	.
.	.	.	.	.	8r	.	.	.	.	.	.	.	.	.	.	.	.	.	.	.	.	.
*	*	*	*Xrep	*	*	*	*	*	*	*	*	*	*	*	*	*	*	*	*	*	*	*
=48	=48	=48	=48	=48	=48	=48	=48	=48	=48	=48	=48	=48	=48	=48	=48	=48	=48	=48	=48	=48	=48	=48
4G\	6 4	.	8.e/L	.	8.gg\L	.	1r	.	1ryy	.	.	8gg\L	e-	.	1r	p	1r	.	4e/	.	4g/	.
.	.	.	.	.	.	.	.	.	.	.	.	8bn\	.	.	.	.	.	.	.	.	.	.
.	.	.	16d/K	.	16bn\K	.	.	.	.	.	.	.	.	.	.	.	.	.	.	.	.	.
4r	.	.	8.e/	.	8cc\	.	.	.	.	.	.	8cc\	.	.	.	.	.	.	4r	.	4r	.
.	.	.	.	.	8dd\J	.	.	.	.	.	.	8dd\J	.	.	.	.	.	.	.	.	.	.
.	.	.	16f/Jk	.	.	.	.	.	.	.	.	.	.	.	.	.	.	.	.	.	.	.
4G\	6 4	.	8g/L	.	8ee\L	.	.	.	.	.	.	4ee\	.	.	.	.	.	.	4e/	.	4g/	.
.	.	.	8G/	.	(16gg\L	.	.	.	.	.	.	.	.	.	.	.	.	.	.	.	.	.
.	.	.	.	.	16ff\JJ)	.	.	.	.	.	.	.	.	.	.	.	.	.	.	.	.	.
4GG/	5 3	.	8f/	.	8dd\L	.	.	.	.	.	.	4dd\	-lei-	.	.	.	.	p	4d/	.	4f/	.
.	.	.	8G/J	.	(16ff\L	.	.	.	.	.	.	.	.	.	.	.	.	.	.	.	.	.
.	.	.	.	.	16ee\JJ)	.	.	.	.	.	.	.	.	.	.	.	.	.	.	.	.	.
!	!	!	!	!	!	!	!	!	!	!	!	!	!	!	!	!	!	!	!	!	!LO:LB:g=original	!
=49	=49	=49	=49	=49	=49	=49	=49	=49	=49	=49	=49	=49	=49	=49	=49	=49	=49	=49	=49	=49	=49	=49
*	*	*	*tremolo	*	*	*	*	*	*	*	*	*	*	*	*	*	*	*	*	*	*	*
4C\	3_	.	16eLL 16G/	.	16cc\LL	.	4r	.	1ryy	.	.	4cc\	-son	.	1c	.	1g	.	4c/	.	4e/	.
.	.	.	16e 16G/	.	16bn\	.	.	.	.	.	.	.	.	.	.	.	.	.	.	.	.	.
.	.	.	16e 16G/	.	16cc\	.	.	.	.	.	.	.	.	.	.	.	.	.	.	.	.	.
.	.	.	16e 16G/	.	16dd\JJ	.	.	.	.	.	.	.	.	.	.	.	.	.	.	.	.	.
4G\	.	.	16e 16G/	.	[4ee^<\	.	4G\	Ki-	.	.	.	4r	.	.	.	.	.	.	2g^/	.	2ee^<\	.
.	.	.	16e 16G/	.	.	.	.	.	.	.	.	.	.	.	.	.	.	.	.	.	.	.
.	.	.	16e 16G/	.	.	.	.	.	.	.	.	.	.	.	.	.	.	.	.	.	.	.
.	.	.	16eJJ 16G/	.	.	.	.	.	.	.	.	.	.	.	.	.	.	.	.	.	.	.
4E\	.	.	16eLL 16G/	.	16ee\LL]	.	4E\	-ri-	.	.	.	2r	.	.	.	.	.	.	.	.	.	.
.	.	.	16e 16G/	.	16b\	.	.	.	.	.	.	.	.	.	.	.	.	.	.	.	.	.
.	.	.	16e 16G/	.	16cc\	.	.	.	.	.	.	.	.	.	.	.	.	.	.	.	.	.
.	.	.	16e 16G/	.	16dd\JJ	.	.	.	.	.	.	.	.	.	.	.	.	.	.	.	.	.
4C\	.	.	16e 16G/	.	16ee\LL	.	4C\	-e-	.	.	.	.	.	.	.	.	.	.	8f/L	.	8dd\L	.
.	.	.	16e 16G/	.	16b\	.	.	.	.	.	.	.	.	.	.	.	.	.	.	.	.	.
.	.	.	16e 16G/	.	16cc\	.	.	.	.	.	.	.	.	.	.	.	.	.	8e/J	.	8cc\J	.
.	.	.	16eJJ 16G/	.	16a\JJ	.	.	.	.	.	.	.	.	.	.	.	.	.	.	.	.	.
!	!	!	!	!	!LO:LB:g=original	!	!	!	!	!	!	!	!	!	!	!	!	!	!	!	!	!
=50	=50	=50	=50	=50	=50	=50	=50	=50	=50	=50	=50	=50	=50	=50	=50	=50	=50	=50	=50	=50	=50	=50
4GG/	7_ 5_	.	16fLL 16G/	.	16g\LL	.	2GG/	-lei-	1ryy	4r	.	4r	.	.	1g	.	1g	.	4d/	.	4bn\	.
.	.	.	16f 16G/	.	16bn\	.	.	.	.	.	.	.	.	.	.	.	.	.	.	.	.	.
.	.	.	16f 16G/	.	16dd\	.	.	.	.	.	.	.	.	.	.	.	.	.	.	.	.	.
.	.	.	16f 16G/	.	16ff\JJ	.	.	.	.	.	.	.	.	.	.	.	.	.	.	.	.	.
4D/	.	.	16f 16G/	.	[4aa\	.	.	.	.	2a\	Ki-	2ff\	e-	.	.	.	.	.	2f^/	.	2dd^<\	.
.	.	.	16f 16G/	.	.	.	.	.	.	.	.	.	.	.	.	.	.	.	.	.	.	.
.	.	.	16f 16G/	.	.	.	.	.	.	.	.	.	.	.	.	.	.	.	.	.	.	.
.	.	.	16fJJ 16G/	.	.	.	.	.	.	.	.	.	.	.	.	.	.	.	.	.	.	.
4BBn/	.	.	16fLL 16G/	.	16aa\LL]	.	2G\	-son	.	.	.	.	.	.	.	.	.	.	.	.	.	.
.	.	.	16f 16G/	.	16cc#X\	.	.	.	.	.	.	.	.	.	.	.	.	.	.	.	.	.
.	.	.	16f 16G/	.	16dd\	.	.	.	.	.	.	.	.	.	.	.	.	.	.	.	.	.
.	.	.	16f 16G/	.	16ee\JJ	.	.	.	.	.	.	.	.	.	.	.	.	.	.	.	.	.
4GG/	.	.	16f 16G/	.	16ff\LL	.	.	.	.	8g\L	-ri-	8ee\L	-lei-	.	.	.	.	.	4d/	.	4b\	.
.	.	.	16f 16G/	.	16cc#\	.	.	.	.	.	.	.	.	.	.	.	.	.	.	.	.	.
.	.	.	16f 16G/	.	16dd\	.	.	.	.	8f\J	.	8dd\J	.	.	.	.	.	.	.	.	.	.
.	.	.	16fJJ 16G/	.	16b\JJ	.	.	.	.	.	.	.	.	.	.	.	.	.	.	.	.	.
!	!	!	!LO:LB:g=original	!	!	!	!	!	!	!	!	!	!	!	!	!	!	!	!	!	!	!
=51	=51	=51	=51	=51	=51	=51	=51	=51	=51	=51	=51	=51	=51	=51	=51	=51	=51	=51	=51	=51	=51	=51
4C/	X 3_	.	16eLL 16G/	.	16cc\LL	.	4r	.	1ryy	4e\	-e	4cc\	-son	.	1c	.	1g	.	4e/	.	4cc\	.
.	.	.	16e 16G/	.	16bn\	.	.	.	.	.	.	.	.	.	.	.	.	.	.	.	.	.
.	.	.	16e 16G/	.	16cc\	.	.	.	.	.	.	.	.	.	.	.	.	.	.	.	.	.
.	.	.	16eJJ 16G/	.	16dd\JJ	.	.	.	.	.	.	.	.	.	.	.	.	.	.	.	.	.
4G\	.	.	16gLL 16G/	.	[4ee\	.	4G\	Ki-	.	4r	.	4r	.	.	.	.	.	.	2g/	.	2ee^<\	.
.	.	.	16g 16G/	.	.	.	.	.	.	.	.	.	.	.	.	.	.	.	.	.	.	.
.	.	.	16g 16G/	.	.	.	.	.	.	.	.	.	.	.	.	.	.	.	.	.	.	.
.	.	.	16g 16G/	.	.	.	.	.	.	.	.	.	.	.	.	.	.	.	.	.	.	.
4E\	.	.	16g 16G/	.	16ee\LL]	.	4E\	-ri-	.	2r	.	2r	.	.	.	.	.	.	.	.	.	.
.	.	.	16g 16G/	.	16b\	.	.	.	.	.	.	.	.	.	.	.	.	.	.	.	.	.
.	.	.	16g 16G/	.	16cc\	.	.	.	.	.	.	.	.	.	.	.	.	.	.	.	.	.
.	.	.	16gJJ 16G/	.	16dd\JJ	.	.	.	.	.	.	.	.	.	.	.	.	.	.	.	.	.
4C/	.	.	16eLL 16G/	.	16ee\LL	.	4C\	-e-	.	.	.	.	.	.	.	.	.	.	8f/L	.	8dd\L	.
.	.	.	16e 16G/	.	16b\	.	.	.	.	.	.	.	.	.	.	.	.	.	.	.	.	.
.	.	.	16e 16G/	.	16cc\	.	.	.	.	.	.	.	.	.	.	.	.	.	8e/J	.	8cc\J	.
.	.	.	16eJJ 16G/	.	16a\JJ	.	.	.	.	.	.	.	.	.	.	.	.	.	.	.	.	.
=52	=52	=52	=52	=52	=52	=52	=52	=52	=52	=52	=52	=52	=52	=52	=52	=52	=52	=52	=52	=52	=52	=52
4GG/	7 5_	.	16fLL 16G/	.	16g\LL	.	2GG/	-lei-	1ryy	4r	.	4r	.	.	1g	.	1g	.	4d/	.	4bn\	.
.	.	.	16f 16G/	.	16bn\	.	.	.	.	.	.	.	.	.	.	.	.	.	.	.	.	.
.	.	.	16f 16G/	.	16dd\	.	.	.	.	.	.	.	.	.	.	.	.	.	.	.	.	.
.	.	.	16f 16G/	.	16ff\JJ	.	.	.	.	.	.	.	.	.	.	.	.	.	.	.	.	.
4D/	.	.	16f 16G/	.	16aa\LL	.	.	.	.	2a\	e-	2ff\	e-	.	.	.	.	.	2f/	.	2dd^<\	.
.	.	.	16f 16G/	.	16gg\	.	.	.	.	.	.	.	.	.	.	.	.	.	.	.	.	.
.	.	.	16f 16G/	.	16ff\	.	.	.	.	.	.	.	.	.	.	.	.	.	.	.	.	.
.	.	.	16fJJ 16G/	.	16ee\JJ	.	.	.	.	.	.	.	.	.	.	.	.	.	.	.	.	.
4BBn/	.	.	16fLL 16G/	.	16dd\LL	.	2G\	-son	.	.	.	.	.	.	.	.	.	.	.	.	.	.
.	.	.	16f 16G/	.	16cc\	.	.	.	.	.	.	.	.	.	.	.	.	.	.	.	.	.
.	.	.	16f 16G/	.	16b\	.	.	.	.	.	.	.	.	.	.	.	.	.	.	.	.	.
.	.	.	16f 16G/	.	16a\JJ	.	.	.	.	.	.	.	.	.	.	.	.	.	.	.	.	.
4GG/	.	.	16f 16G/	.	16g/LL	.	.	.	.	8g\L	-lei-	8ee\L	-lei-	.	.	.	.	.	4d/	.	4b\	.
.	.	.	16f 16G/	.	16f/	.	.	.	.	.	.	.	.	.	.	.	.	.	.	.	.	.
.	.	.	16f 16G/	.	16e/	.	.	.	.	8f\J	.	8dd\J	.	.	.	.	.	.	.	.	.	.
.	.	.	16fJJ 16G/	.	16d/JJ	.	.	.	.	.	.	.	.	.	.	.	.	.	.	.	.	.
=53	=53	=53	=53	=53	=53	=53	=53	=53	=53	=53	=53	=53	=53	=53	=53	=53	=53	=53	=53	=53	=53	=53
!	!	!	!	!	!LO:TX:a:t=P:problem=mixed beam	!	!	!	!	!	!	!	!	!	!	!	!	!	!	!	!	!
4C/	X 4	.	16c/LL	.	8c/L	.	4C/	Ki-	1ryy	4e\	-son	4cc\	-son	.	4c/	.	4c/	.	1e	.	1cc	.
.	.	.	16c/	.	.	.	.	.	.	.	.	.	.	.	.	.	.	.	.	.	.	.
.	.	.	16c/	.	8cc\J	.	.	.	.	.	.	.	.	.	.	.	.	.	.	.	.	.
.	.	.	16c/	.	.	.	.	.	.	.	.	.	.	.	.	.	.	.	.	.	.	.
!	!	!	!	!	!	!	!	!	!	!	!	!	!	!	!	!	!LO:N:vis=8	!	!	!	!	!
4r	.	.	16c/	.	(16cc\LL	.	4C/	-ri-	.	4r	.	8cc\	Ki-	.	8C/L	.	8.c/L	.	.	.	.	.
.	.	.	16c/	.	16bn\	.	.	.	.	.	.	.	.	.	.	.	.	.	.	.	.	.
.	.	.	16c/	.	16cc\)	.	.	.	.	.	.	8cc\	-ri-	.	8C/J	.	.	.	.	.	.	.
.	.	.	16c/JJ	.	16dd\JJ	.	.	.	.	.	.	.	.	.	.	.	16c/Jk	.	.	.	.	.
2r	.	.	16c/LL	.	8cc\L	.	2C/	-e	.	2r	.	2cc\	-e	.	2C/	.	2c/	.	.	.	.	.
.	.	.	16c/	.	.	.	.	.	.	.	.	.	.	.	.	.	.	.	.	.	.	.
.	.	.	16c/	.	8cc\	.	.	.	.	.	.	.	.	.	.	.	.	.	.	.	.	.
.	.	.	16c/	.	.	.	.	.	.	.	.	.	.	.	.	.	.	.	.	.	.	.
.	.	.	16c/	.	8bn\	.	.	.	.	.	.	.	.	.	.	.	.	.	.	.	.	.
.	.	.	16c/	.	.	.	.	.	.	.	.	.	.	.	.	.	.	.	.	.	.	.
.	.	.	16c/	.	8cc\J	.	.	.	.	.	.	.	.	.	.	.	.	.	.	.	.	.
.	.	.	16c/JJ	.	.	.	.	.	.	.	.	.	.	.	.	.	.	.	.	.	.	.
!LO:LB:g=original	!	!	!	!	!LO:LB:g=original	!	!	!	!	!	!	!	!	!	!	!	!	!	!	!	!	!
=54	=54	=54	=54	=54	=54	=54	=54	=54	=54	=54	=54	=54	=54	=54	=54	=54	=54	=54	=54	=54	=54	=54
*	*	*	*	*	*	*	*	*	*	*	*	*^	*	*	*	*	*	*	*	*	*	*
*	*	*	*	*	*	*	*	*ij	*	*	*	*	*	*ij	*	*	*	*	*	*	*	*	*
1E	6 3	.	16c/LL	.	4b-\	.	4E\	Ki-	1ryy	4cc\	Ki-	4b-X/	4b-X\	Ki-	.	4c/	.	4g\	.	1ee	.	1bb-X	.
.	.	.	16c/	.	.	.	.	.	.	.	.	.	.	.	.	.	.	.	.	.	.	.	.
.	.	.	16c/	.	.	.	.	.	.	.	.	.	.	.	.	.	.	.	.	.	.	.	.
.	.	.	16c/	.	.	.	.	.	.	.	.	.	.	.	.	.	.	.	.	.	.	.	.
.	.	.	16c/	.	(16b-\LL	.	4E\	-ri-	.	4cc\	-ri-	4b-/	4b-\	-ri-	.	8.c/L	.	8.g\L	.	.	.	.	.
.	.	.	16c/	.	16a\	.	.	.	.	.	.	.	.	.	.	.	.	.	.	.	.	.	.
.	.	.	16c/	.	16b-\	.	.	.	.	.	.	.	.	.	.	.	.	.	.	.	.	.	.
.	.	.	16c/JJ	.	16cc\JJ)	.	.	.	.	.	.	.	.	.	.	16c/Jk	.	16g\Jk	.	.	.	.	.
.	.	.	16c/LL	.	8b-'\L	.	2E\	-e	.	2cc\	-e	2b-/	2b-\	-e	.	2c/	.	2g\	.	.	.	.	.
*	*	*	*	*	*	*	*	*Xij	*	*	*	*	*	*Xij	*	*	*	*	*	*	*	*	*
.	.	.	16c/	.	.	.	.	.	.	.	.	.	.	.	.	.	.	.	.	.	.	.	.
.	.	.	16c/	.	8b-'\	.	.	.	.	.	.	.	.	.	.	.	.	.	.	.	.	.	.
.	.	.	16c/	.	.	.	.	.	.	.	.	.	.	.	.	.	.	.	.	.	.	.	.
.	.	.	16c/	.	8a'\	.	.	.	.	.	.	.	.	.	.	.	.	.	.	.	.	.	.
.	.	.	16c/	.	.	.	.	.	.	.	.	.	.	.	.	.	.	.	.	.	.	.	.
.	.	.	16c/	.	8a'\J	.	.	.	.	.	.	.	.	.	.	.	.	.	.	.	.	.	.
.	.	.	16c/JJ	.	.	.	.	.	.	.	.	.	.	.	.	.	.	.	.	.	.	.	.
!	!	!	!	!	!	!	!	!	!	!	!	!	!	!	!	!	!	!LO:LB:g=original	!	!	!	!	!
=55	=55	=55	=55	=55	=55	=55	=55	=55	=55	=55	=55	=55	=55	=55	=55	=55	=55	=55	=55	=55	=55	=55	=55
1F	5 3	.	16c/LL	.	8r	.	4F\	e-	1ryy	4cc\	e-	4a/	4a\	e-	.	4f\	.	4a\	.	1cc	.	1aa	.
.	.	.	16c/	.	.	.	.	.	.	.	.	.	.	.	.	.	.	.	.	.	.	.	.
.	.	.	16c/	.	8a/	.	.	.	.	.	.	.	.	.	.	.	.	.	.	.	.	.	.
.	.	.	16c/	.	.	.	.	.	.	.	.	.	.	.	.	.	.	.	.	.	.	.	.
!	!	!	!	!	!	!	!	!	!	!	!	!	!	!	!	!	!	!LO:N:vis=8	!	!	!	!	!
.	.	.	16c/	.	(16a/LL	.	4F\	-lei-	.	4cc\	-le-	4a/	4a\	-le-	.	8.f\L	.	8.a\L	.	.	.	.	.
.	.	.	16c/	.	16g#X/	.	.	.	.	.	.	.	.	.	.	.	.	.	.	.	.	.	.
.	.	.	16c/	.	16a/	.	.	.	.	.	.	.	.	.	.	.	.	.	.	.	.	.	.
.	.	.	16c/JJ	.	16b-/JJ)	.	.	.	.	.	.	.	.	.	.	16f\Jk	.	16a\Jk	.	.	.	.	.
.	.	.	16c/LL	.	8a/L	.	2F\	.	.	2cc\	-j-	2a/	2a\	-j-	.	2f\	.	2a\	.	.	.	.	.
.	.	.	16c/	.	.	.	.	.	.	.	.	.	.	.	.	.	.	.	.	.	.	.	.
.	.	.	16c/	.	8a/	.	.	.	.	.	.	.	.	.	.	.	.	.	.	.	.	.	.
.	.	.	16c/	.	.	.	.	.	.	.	.	.	.	.	.	.	.	.	.	.	.	.	.
.	.	.	16c/	.	8g#X/	.	.	.	.	.	.	.	.	.	.	.	.	.	.	.	.	.	.
.	.	.	16c/	.	.	.	.	.	.	.	.	.	.	.	.	.	.	.	.	.	.	.	.
.	.	.	16c/	.	8a/J	.	.	.	.	.	.	.	.	.	.	.	.	.	.	.	.	.	.
.	.	.	16c/JJ	.	.	.	.	.	.	.	.	.	.	.	.	.	.	.	.	.	.	.	.
*	*	*	*Xtremolo	*	*	*	*	*	*	*	*	*	*	*	*	*	*	*	*	*	*	*	*
*	*	*	*	*	*	*	*	*	*	*	*	*v	*v	*	*	*	*	*	*	*	*	*	*
!	!	!	!	!	!	!	!	!	!	!	!	!LO:LB:g=original	!	!	!LO:LB:g=original	!	!	!	!LO:LB:g=original	!	!	!
=56	=56	=56	=56	=56	=56	=56	=56	=56	=56	=56	=56	=56	=56	=56	=56	=56	=56	=56	=56	=56	=56	=56
4Bn\	4 2	.	4c/	.	8g/	.	4B-\	-son	1ryy	4cc\	-son	4g\	-son	.	4c/	.	4g\	.	4b-\	.	4gg\	.
.	.	.	.	.	4ee^<\	.	.	.	.	.	.	.	.	.	.	.	.	.	.	.	.	.
4r	.	.	4r	.	.	.	4r	.	.	4r	.	4r	.	.	4r	.	4r	.	4r	.	4r	.
.	.	.	.	.	(8ee-X\	.	.	.	.	.	.	.	.	.	.	.	.	.	.	.	.	.
2r	.	.	2r	.	8dd\)	.	2r	.	.	2r	.	2r	.	.	2r	.	2r	.	2r	.	2r	.
.	.	.	.	.	4dd-X^<\	.	.	.	.	.	.	.	.	.	.	.	.	.	.	.	.	.
.	.	.	.	.	8cc\	.	.	.	.	.	.	.	.	.	.	.	.	.	.	.	.	.
!	!	!	!	!	!	!	!	!	!	!LO:LB:g=original	!	!	!	!	!	!	!	!	!	!	!	!
=57	=57	=57	=57	=57	=57	=57	=57	=57	=57	=57	=57	=57	=57	=57	=57	=57	=57	=57	=57	=57	=57	=57
!LO:TX:a:t=1	!	!	!LO:TX:a:t=1	!	!	!	!LO:TX:a:t=9	!	!	!LO:TX:a:t=8	!	!LO:TX:a:t=1.	!	!	!LO:TX:a:t=8	!	!LO:TX:a:t=8	!	!LO:TX:a:t=8	!	!LO:TX:a:t=8	!
1r	.	.	1r	.	8bn\L	.	00r	.	1ryy	00r	.	1r	.	.	00r	.	00r	.	00r	.	00r	.
.	.	.	.	.	16cc\Jk	.	.	.	.	.	.	.	.	.	.	.	.	.	.	.	.	.
.	.	.	.	.	16r	.	.	.	.	.	.	.	.	.	.	.	.	.	.	.	.	.
.	.	.	.	.	8ff#X\L	.	.	.	.	.	.	.	.	.	.	.	.	.	.	.	.	.
.	.	.	.	.	16gg\Jk	.	.	.	.	.	.	.	.	.	.	.	.	.	.	.	.	.
.	.	.	.	.	16r	.	.	.	.	.	.	.	.	.	.	.	.	.	.	.	.	.
.	.	.	.	.	8aa\L	.	.	.	.	.	.	.	.	.	.	.	.	.	.	.	.	.
.	.	.	.	.	16bb-\Jk	.	.	.	.	.	.	.	.	.	.	.	.	.	.	.	.	.
.	.	.	.	.	16r	.	.	.	.	.	.	.	.	.	.	.	.	.	.	.	.	.
.	.	.	.	.	8ddd\L	.	.	.	.	.	.	.	.	.	.	.	.	.	.	.	.	.
.	.	.	.	.	16ccc\Jk	.	.	.	.	.	.	.	.	.	.	.	.	.	.	.	.	.
!	!	!	!	!	!LO:TX:b:i:t=Vertat.	!	!	!	!	!	!	!	!	!	!	!	!	!	!	!	!	!
.	.	.	.	.	16r	.	.	.	.	.	.	.	.	.	.	.	.	.	.	.	.	.
!	!	!	!	!	!LO:PB:g=original	!	!	!	!	!	!	!	!	!	!	!	!	!	!	!	!	!
=58	=58	=58	=58	=58	=58	=58	=58	=58	=58	=58	=58	=58	=58	=58	=58	=58	=58	=58	=58	=58	=58	=58
!	!	!LO:DY:rj	!	!	!	!	!	!	!	!	!	!	!	!	!	!	!	!	!	!	!	!
4F\	7	p	8r	.	8r	.	.	.	1ryy	.	.	8r	.	.	.	.	.	.	.	.	.	.
.	.	.	8c/L	.	(8a/L	.	.	.	.	.	.	8a\L	Ki-	.	.	.	.	.	.	.	.	.
4r	.	.	8Bn/	.	8g#X/)	.	.	.	.	.	.	8g#X\J	.	.	.	.	.	.	.	.	.	.
.	.	.	8c/J	.	8a'/J	.	.	.	.	.	.	8a\	-ri-	.	.	.	.	.	.	.	.	.
4r	.	.	4A/	.	4f/	.	.	.	.	.	.	4f\	-e	.	.	.	.	.	.	.	.	.
4FF/	.	.	4r	.	4c/	.	.	.	.	.	.	4r	.	.	.	.	.	.	.	.	.	.
=59	=59	=59	=59	=59	=59	=59	=59	=59	=59	=59	=59	=59	=59	=59	=59	=59	=59	=59	=59	=59	=59	=59
4F\	.	.	8r	.	8r	.	.	.	1ryy	.	.	8r	.	.	.	.	.	.	.	.	.	.
.	.	.	8a/L	.	(8cc\L	.	.	.	.	.	.	8cc\L	e-	.	.	.	.	.	.	.	.	.
4r	.	.	8g#X/	.	8bn\)	.	.	.	.	.	.	8bn\J	.	.	.	.	.	.	.	.	.	.
.	.	.	8a/J	.	8cc'\J	.	.	.	.	.	.	8cc\	.	.	.	.	.	.	.	.	.	.
4r	.	.	4f/	.	4a/	.	.	.	.	.	.	4a\	.	.	.	.	.	.	.	.	.	.
4FF/	.	.	4r	.	(4ff\	.	.	.	.	.	.	4ff\	.	.	.	.	.	.	.	.	.	.
=60	=60	=60	=60	=60	=60	=60	=60	=60	=60	=60	=60	=60	=60	=60	=60	=60	=60	=60	=60	=60	=60	=60
4C\	7_ 5_	.	4b- 4g/	.	4ee^\	.	.	.	1ryy	.	.	4ee\	.	.	.	.	.	.	.	.	.	.
4r	.	.	4r	.	4ee-X^\	.	.	.	.	.	.	4ee-X\	.	.	.	.	.	.	.	.	.	.
4E\	.	.	4b- 4g/	.	4dd^\	.	.	.	.	.	.	4dd\	.	.	.	.	.	.	.	.	.	.
4r	.	.	4r	.	4dd-X^\)	.	.	.	.	.	.	4dd-X\	.	.	.	.	.	.	.	.	.	.
!	!	!	!LO:LB:g=original	!	!	!	!	!	!	!	!	!	!	!	!	!	!	!	!	!	!	!
=61	=61	=61	=61	=61	=61	=61	=61	=61	=61	=61	=61	=61	=61	=61	=61	=61	=61	=61	=61	=61	=61	=61
4E\	.	.	4.g/	.	4.cc\	.	00r	.	1ryy	00r	.	4.cc\	-lei-	.	00r	.	00r	.	00r	.	00r	.
4C\	.	.	.	.	.	.	.	.	.	.	.	.	.	.	.	.	.	.	.	.	.	.
.	.	.	8e/	.	8b-\	.	.	.	.	.	.	8b-\	.	.	.	.	.	.	.	.	.	.
4F\	3	.	4f/	.	4a\	.	.	.	.	.	.	4a\	-son	.	.	.	.	.	.	.	.	.
4E\	3	.	4r	.	4r	.	.	.	.	.	.	4r	.	.	.	.	.	.	.	.	.	.
=62	=62	=62	=62	=62	=62	=62	=62	=62	=62	=62	=62	=62	=62	=62	=62	=62	=62	=62	=62	=62	=62	=62
4D\	3	.	8r	.	8r	.	.	.	1ryy	.	.	8r	.	.	.	.	.	.	.	.	.	.
.	.	.	8f/L	.	(8a/L	.	.	.	.	.	.	(8a\L	Ki-	.	.	.	.	.	.	.	.	.
4r	.	.	8e/	.	8g#X/)	.	.	.	.	.	.	8g#X\)	.	.	.	.	.	.	.	.	.	.
.	.	.	8f/J	.	8a'/J	.	.	.	.	.	.	8a'\J	-ri-	.	.	.	.	.	.	.	.	.
4r	.	.	4d/	.	4f/	.	.	.	.	.	.	4f\	-e	.	.	.	.	.	.	.	.	.
4DD/	3	.	4r	.	4d/	.	.	.	.	.	.	4r	.	.	.	.	.	.	.	.	.	.
=63	=63	=63	=63	=63	=63	=63	=63	=63	=63	=63	=63	=63	=63	=63	=63	=63	=63	=63	=63	=63	=63	=63
4D\	3	.	8r	.	8r	.	.	.	1ryy	.	.	4r	.	.	.	.	.	.	.	.	.	.
.	.	.	8f/L	.	8dd\L	.	.	.	.	.	.	.	.	.	.	.	.	.	.	.	.	.
*	*	*	*	*	*	*	*	*	*	*	*	*	*ij	*	*	*	*	*	*	*	*	*
4r	.	.	8e/	.	8cc#X\	.	.	.	.	.	.	8ddL 8cc\	Ki-	.	.	.	.	.	.	.	.	.
.	.	.	8f/J	.	8dd\J	.	.	.	.	.	.	8cc#J 8b-\	.	.	.	.	.	.	.	.	.	.
4r	.	.	4f/	.	4a/	.	.	.	.	.	.	4dd 4cc#\	-ri-	.	.	.	.	.	.	.	.	.
*	*	*	*	*	*	*	*	*	*	*	*	*	*Xij	*	*	*	*	*	*	*	*	*
4DD/	3	.	4r	.	4ff\	.	.	.	.	.	.	4ff\	e-	.	.	.	.	.	.	.	.	.
=64	=64	=64	=64	=64	=64	=64	=64	=64	=64	=64	=64	=64	=64	=64	=64	=64	=64	=64	=64	=64	=64	=64
4EE/	6 4	.	4cc\	.	4ee\	.	.	.	1ryy	.	.	4ee\	-lei-	.	.	.	.	.	.	.	.	.
8E\L	.	.	8.c/L	.	8.a/L	.	.	.	.	.	.	4a\	.	.	.	.	.	.	.	.	.	.
8E\J	.	.	.	.	.	.	.	.	.	.	.	.	.	.	.	.	.	.	.	.	.	.
.	.	.	16c/Jk	.	16a/Jk	.	.	.	.	.	.	.	.	.	.	.	.	.	.	.	.	.
4E\	.	.	4e/	.	8cc\L	.	.	.	.	.	.	4cc\	.	.	.	.	.	.	.	.	.	.
.	.	.	.	.	(16dd\L	.	.	.	.	.	.	.	.	.	.	.	.	.	.	.	.	.
.	.	.	.	.	16cc\JJ)	.	.	.	.	.	.	.	.	.	.	.	.	.	.	.	.	.
4E\	5 #	.	4d/	.	8bn\L	.	.	.	.	.	.	4bn\	.	.	.	.	.	.	.	.	.	.
.	.	.	.	.	(16cc\L	.	.	.	.	.	.	.	.	.	.	.	.	.	.	.	.	.
.	.	.	.	.	16b\JJ)	.	.	.	.	.	.	.	.	.	.	.	.	.	.	.	.	.
=65	=65	=65	=65	=65	=65	=65	=65	=65	=65	=65	=65	=65	=65	=65	=65	=65	=65	=65	=65	=65	=65	=65
!	!	!	!	!	!LO:TX:a:t=P:problem=mixed beam	!	!	!	!	!	!	!	!	!	!	!	!	!	!	!	!	!
4AA/	3	.	8c/L	f	8a/L	f	1r	.	1ryy	4r	.	4a\	-son	.	4r	.	4r	.	4r	.	4r	.
.	.	.	16aL 16A/	.	16aa\L	.	.	.	.	.	.	.	.	.	.	.	.	.	.	.	.	.
.	.	.	16aJJ 16A/	.	16aa\JJ	.	.	.	.	.	.	.	.	.	.	.	.	.	.	.	.	.
*	*	*	*tremolo	*	*tremolo	*	*	*	*	*	*	*	*	*	*	*	*	*	*	*	*	*
4r	.	.	8aL 8A/	.	8aaL 8a\	.	.	.	.	8a\	Ki-	4r	.	.	8.A/L	.	8.a\L	.	8.a/L	.	8.aa\L	f
.	.	.	8a 8A/	.	8aa 8a\	.	.	.	.	8a\	-ri-	.	.	.	.	.	.	.	.	.	.	.
.	.	.	.	.	.	.	.	.	.	.	.	.	.	.	16A/Jk	.	16a\Jk	.	16a/Jk	.	16aa\Jk	.
2r	.	.	8a 8A/	.	8aa 8a\	.	.	.	.	4a\	-e	2r	.	.	4A/	.	4a\	.	4a/	.	4aa\	.
.	.	.	8a 8A/	.	8aa 8a\	.	.	.	.	.	.	.	.	.	.	.	.	.	.	.	.	.
.	.	.	8a 8A/	.	8aa 8a\	.	.	.	.	4a\	e-	.	.	.	4A/	.	4a\	.	4a/	.	4aa\	.
.	.	.	8aJ 8A/	.	8aaJ 8a\	.	.	.	.	.	.	.	.	.	.	.	.	.	.	.	.	.
*	*	*	*Xtremolo	*	*Xtremolo	*	*	*	*	*	*	*	*	*	*	*	*	*	*	*	*	*
!LO:LB:g=original	!	!	!	!	!LO:LB:g=original	!	!LO:LB:g=original	!	!	!	!	!LO:LB:g=original	!	!	!	!	!	!	!	!	!LO:LB:g=original	!
=66	=66	=66	=66	=66	=66	=66	=66	=66	=66	=66	=66	=66	=66	=66	=66	=66	=66	=66	=66	=66	=66	=66
4.E\	5_ 3_	f	8r	.	8bb-\L	.	4.c\	Ki-	1ryy	2b-\	-lei-	4.ee\	Ki-	.	2c/	.	2g\	.	2ee\	.	2bb-\	.
.	.	.	16b-LL 16c/	.	16bbn\L	.	.	.	.	.	.	.	.	.	.	.	.	.	.	.	.	.
.	.	.	16b-JJ 16c/	.	16bb\JJ	.	.	.	.	.	.	.	.	.	.	.	.	.	.	.	.	.
.	.	.	8b-L 8c/	.	8bb\L	.	.	.	.	.	.	.	.	.	.	.	.	.	.	.	.	.
8C\	.	.	8b-J 8c/	.	16ccc\L	.	8c\	-ri-	.	.	.	8ee\	-ri-	.	.	.	.	.	.	.	.	.
.	.	.	.	.	16ccc\JJ	.	.	.	.	.	.	.	.	.	.	.	.	.	.	.	.	.
4.G\	.	.	8r	.	8ddd\L	.	4c\	-e	.	4b-\	-son	4ee\	-e	.	2c/	.	2g\	.	2ee\	.	2bb-\	.
.	.	.	16b-LL 16c/	.	16ccc\L	.	.	.	.	.	.	.	.	.	.	.	.	.	.	.	.	.
.	.	.	16b-JJ 16c/	.	16ccc\JJ	.	.	.	.	.	.	.	.	.	.	.	.	.	.	.	.	.
.	.	.	8b-L 8c/	.	8ccc\L	.	4c\	e-	.	4b-\	e-	4ee\	e-	.	.	.	.	.	.	.	.	.
8E\	.	.	8b-J 8c/	.	8gg\J	.	.	.	.	.	.	.	.	.	.	.	.	.	.	.	.	.
=67	=67	=67	=67	=67	=67	=67	=67	=67	=67	=67	=67	=67	=67	=67	=67	=67	=67	=67	=67	=67	=67	=67
4.F\	3_	.	8r	.	8bb-\L	.	2F\	-lei-	1ryy	2a\	-lei-	2ff\	-lei-	.	4F/	.	4f\	.	4cc\	.	4aa\	.
.	.	.	16aLL 16c/	.	16aa\L	.	.	.	.	.	.	.	.	.	.	.	.	.	.	.	.	.
.	.	.	16aJ 16c/	.	16aa\JJ	.	.	.	.	.	.	.	.	.	.	.	.	.	.	.	.	.
.	.	.	8a 8c/	.	8aa\L	.	.	.	.	.	.	.	.	.	4C/	.	4c\	.	4c/	.	4cc\	.
8C\	.	.	8aJ 8c/	.	8ee\J	.	.	.	.	.	.	.	.	.	.	.	.	.	.	.	.	.
*	*	*	*rep	*	*	*	*	*	*	*	*	*	*	*	*	*	*	*	*	*	*	*
4.A\	.	.	8r	.	8gg\L	.	4F\	-son	.	4a\	-son	4ff\	-son	.	4F/	.	4f\	.	4f/	.	4ff\	.
.	.	.	16aLL 16c/	.	16ff\L	.	.	.	.	.	.	.	.	.	.	.	.	.	.	.	.	.
.	.	.	16aJ 16c/	.	16ff\JJ	.	.	.	.	.	.	.	.	.	.	.	.	.	.	.	.	.
.	.	.	8a 8c/	.	8ff\L	.	4r	.	.	4r	.	4r	.	.	4G/	.	4a\	.	4a/	.	4aa\	.
8F\	.	.	8aJ 8c/	.	8dd\J	.	.	.	.	.	.	.	.	.	.	.	.	.	.	.	.	.
*	*	*	*Xrep	*	*	*	*	*	*	*	*	*	*	*	*	*	*	*	*	*	*	*
!	!	!	!LO:LB:g=original	!	!	!	!	!	!	!	!	!	!	!	!	!	!	!	!	!	!	!
=68	=68	=68	=68	=68	=68	=68	=68	=68	=68	=68	=68	=68	=68	=68	=68	=68	=68	=68	=68	=68	=68	=68
*	*	*	*	*	*	*	*	*ij	*	*	*	*	*ij	*	*	*	*	*	*	*	*	*
4.G\	3_	.	8r	.	8dd\L	.	4.E\	Ki-	1ryy	4.g\	Ki-	4.b-\	Ki-	.	2c/	.	2g\	.	2b-/	.	2gg\	.
.	.	.	16b-LL 16c/	.	16cc\L	.	.	.	.	.	.	.	.	.	.	.	.	.	.	.	.	.
.	.	.	16b-JJ 16c/	.	16cc\JJ	.	.	.	.	.	.	.	.	.	.	.	.	.	.	.	.	.
.	.	.	8b-L 8c/	.	8cc\L	.	.	.	.	.	.	.	.	.	.	.	.	.	.	.	.	.
8C\	.	.	8b-J 8c/	.	8bn\J	.	8E\	-ri-	.	8g\	-ri-	8b-\	-ri-	.	.	.	.	.	.	.	.	.
4.B-\	.	.	8r	.	8dd\L	.	4E\	-e	.	4g\	-e	4b-\	-e	.	2c/	.	2g\	.	2g/	.	2ee\	.
.	.	.	16b-LL 16c/	.	16cc\L	.	.	.	.	.	.	.	.	.	.	.	.	.	.	.	.	.
.	.	.	16b-JJ 16c/	.	16cc\JJ	.	.	.	.	.	.	.	.	.	.	.	.	.	.	.	.	.
!	!	!	!	!	!LO:TX:a:t=P:problem=mixed beam	!	!	!	!	!	!	!	!	!	!	!	!	!	!	!	!	!
.	.	.	8b-L 8c/	.	8cc\L	.	4E\	e-	.	4g\	e-	4b-\	e-	.	.	.	.	.	.	.	.	.
8C\	.	.	8b-J 8c/	.	8e/J	.	.	.	.	.	.	.	.	.	.	.	.	.	.	.	.	.
=69	=69	=69	=69	=69	=69	=69	=69	=69	=69	=69	=69	=69	=69	=69	=69	=69	=69	=69	=69	=69	=69	=69
4.A\	6_	.	8r	.	8dd\L	.	2F\	-lei-	1ryy	2f\	-lei-	2a\	-lei-	.	2A/	.	2f\	.	2a\	.	2ff\	.
.	.	.	16aLL 16c/	.	16cc\L	.	.	.	.	.	.	.	.	.	.	.	.	.	.	.	.	.
.	.	.	16aJJ 16c/	.	16cc\JJ	.	.	.	.	.	.	.	.	.	.	.	.	.	.	.	.	.
.	.	.	8aL 8c/	.	8cc\L	.	.	.	.	.	.	.	.	.	.	.	.	.	.	.	.	.
8E\	.	.	8aJ 8c/	.	8bn\J	.	.	.	.	.	.	.	.	.	.	.	.	.	.	.	.	.
4.F\	.	.	8r	.	8dd\L	.	4F\	-son	.	4f\	-son	4a\	-son	.	2A/	.	2f\	.	2cc\	.	2aa\	.
*	*	*	*	*	*	*	*	*Xij	*	*	*	*	*	*	*	*	*	*	*	*	*	*
.	.	.	16aLL 16c/	.	16cc\L	.	.	.	.	.	.	.	.	.	.	.	.	.	.	.	.	.
.	.	.	16aJJ 16c/	.	16cc\JJ	.	.	.	.	.	.	.	.	.	.	.	.	.	.	.	.	.
!	!	!	!	!	!LO:TX:a:t=P:problem=mixed beam	!	!	!	!	!	!	!	!	!	!	!	!	!	!	!	!	!
.	.	.	8aL 8c/	.	8cc\L	.	4r	.	.	4r	.	4r	.	.	.	.	.	.	.	.	.	.
8C\	.	.	8aJ 8c/	.	8f/J	.	.	.	.	.	.	.	.	.	.	.	.	.	.	.	.	.
=70	=70	=70	=70	=70	=70	=70	=70	=70	=70	=70	=70	=70	=70	=70	=70	=70	=70	=70	=70	=70	=70	=70
*	*	*	*tremolo	*	*tremolo	*	*	*	*	*	*	*	*	*	*	*	*	*	*	*	*	*
4.E\	5_ 3_	.	16gLL 16c/	.	16bb-X\LL	.	4.c\	Ki-	1ryy	4.b-\	Ki-	4.ee\	Ki-	.	2c/	.	2g\	.	2ee\	.	2bb-\	.
.	.	.	16g 16c/	.	16bb-\	.	.	.	.	.	.	.	.	.	.	.	.	.	.	.	.	.
.	.	.	16g 16c/	.	16bbn\	.	.	.	.	.	.	.	.	.	.	.	.	.	.	.	.	.
.	.	.	16g 16c/	.	16bb\	.	.	.	.	.	.	.	.	.	.	.	.	.	.	.	.	.
.	.	.	16g 16c/	.	16bb\	.	.	.	.	.	.	.	.	.	.	.	.	.	.	.	.	.
.	.	.	16g 16c/	.	16bb\	.	.	.	.	.	.	.	.	.	.	.	.	.	.	.	.	.
8C\	.	.	16g 16c/	.	16ccc\	.	8c\	-ri-	.	8b-\	-ri-	8ee\	-ri-	.	.	.	.	.	.	.	.	.
.	.	.	16gJJ 16c/	.	16ccc\JJ	.	.	.	.	.	.	.	.	.	.	.	.	.	.	.	.	.
4.G\	.	.	16gLL 16c/	.	16ddd\LL	.	4c\	-e	.	4b-\	-e	4ee\	-e	.	2c/	.	2g\	.	2ee\	.	2bb-\	.
.	.	.	16g 16c/	.	16ddd\	.	.	.	.	.	.	.	.	.	.	.	.	.	.	.	.	.
.	.	.	16g 16c/	.	16ccc\	.	.	.	.	.	.	.	.	.	.	.	.	.	.	.	.	.
.	.	.	16g 16c/	.	16ccc\	.	.	.	.	.	.	.	.	.	.	.	.	.	.	.	.	.
.	.	.	16g 16c/	.	16ccc\	.	4c\	e-	.	4b-\	e-	4ee\	e-	.	.	.	.	.	.	.	.	.
.	.	.	16g 16c/	.	16ccc\	.	.	.	.	.	.	.	.	.	.	.	.	.	.	.	.	.
8E\	.	.	16g 16c/	.	16gg\	.	.	.	.	.	.	.	.	.	.	.	.	.	.	.	.	.
.	.	.	16gJJ 16c/	.	16gg\JJ	.	.	.	.	.	.	.	.	.	.	.	.	.	.	.	.	.
=71	=71	=71	=71	=71	=71	=71	=71	=71	=71	=71	=71	=71	=71	=71	=71	=71	=71	=71	=71	=71	=71	=71
*tremolo	*	*	*	*	*	*	*	*	*	*	*	*	*	*	*	*	*	*	*	*	*	*
8F\L	3	.	16aLL 16c/	.	16bb-\LL	.	2F\	-lei-	1ryy	2a\	-lei-	2.ff\	-lei-	.	2A/	.	1f	.	4cc\	.	4aa\	.
.	.	.	16a 16c/	.	16bb-\	.	.	.	.	.	.	.	.	.	.	.	.	.	.	.	.	.
8F\	.	.	16a 16c/	.	16aa\	.	.	.	.	.	.	.	.	.	.	.	.	.	.	.	.	.
.	.	.	16a 16c/	.	16aa\	.	.	.	.	.	.	.	.	.	.	.	.	.	.	.	.	.
8F\	.	.	16a 16c/	.	16aa\	.	.	.	.	.	.	.	.	.	.	.	.	.	4c/	.	4cc\	.
.	.	.	16a 16c/	.	16aa\	.	.	.	.	.	.	.	.	.	.	.	.	.	.	.	.	.
8F\J	.	.	16a 16c/	.	16ee\	.	.	.	.	.	.	.	.	.	.	.	.	.	.	.	.	.
.	.	.	16aJJ 16c/	.	16ee\JJ	.	.	.	.	.	.	.	.	.	.	.	.	.	.	.	.	.
8BB-/L	6 3	.	16b-LL 16d/	.	16gg\LL	.	2B-\	.	.	2f\	-son	.	.	.	2F/	.	.	.	4b-\	.	4ff\	.
.	.	.	16b- 16d/	.	16gg\	.	.	.	.	.	.	.	.	.	.	.	.	.	.	.	.	.
8BB-/	.	.	16b- 16d/	.	16ff\	.	.	.	.	.	.	.	.	.	.	.	.	.	.	.	.	.
.	.	.	16b- 16d/	.	16ff\	.	.	.	.	.	.	.	.	.	.	.	.	.	.	.	.	.
8BB-/	.	.	16b- 16d/	.	16ff\	.	.	.	.	.	.	4dd\	-son	.	.	.	.	.	4dd\	.	4bb-\	.
*	*	*	*	*	*	*	*	*	*	*	*	*	*Xij	*	*	*	*	*	*	*	*	*
.	.	.	16b- 16d/	.	16ff\	.	.	.	.	.	.	.	.	.	.	.	.	.	.	.	.	.
8BB-/J	.	.	16b- 16d/	.	16dd\	.	.	.	.	.	.	.	.	.	.	.	.	.	.	.	.	.
.	.	.	16b-JJ 16d/	.	16dd\JJ	.	.	.	.	.	.	.	.	.	.	.	.	.	.	.	.	.
!	!	!	!	!	!LO:LB:g=original	!	!	!	!	!	!	!	!	!	!	!	!	!	!	!	!	!
=72	=72	=72	=72	=72	=72	=72	=72	=72	=72	=72	=72	=72	=72	=72	=72	=72	=72	=72	=72	=72	=72	=72
!	!	!	!	!	!LO:TX:a:t=P:problem=mixed beam	!	!	!	!	!	!	!	!	!	!	!	!	!	!	!	!	!
8C/L	6 4	.	16aLL 16c/	.	16dd\LL	.	2c\	.	1ryy	2a\	e-	2cc\	e-	.	2A/	.	2f\	.	2cc\	.	2aa\	.
.	.	.	16a 16c/	.	16dd\	.	.	.	.	.	.	.	.	.	.	.	.	.	.	.	.	.
8C/	.	.	16a 16c/	.	16cc\	.	.	.	.	.	.	.	.	.	.	.	.	.	.	.	.	.
.	.	.	16a 16c/	.	16cc\	.	.	.	.	.	.	.	.	.	.	.	.	.	.	.	.	.
8C/	.	.	16a 16c/	.	16cc\	.	.	.	.	.	.	.	.	.	.	.	.	.	.	.	.	.
.	.	.	16a 16c/	.	16cc\	.	.	.	.	.	.	.	.	.	.	.	.	.	.	.	.	.
8C/J	.	.	16a 16c/	.	16f\	.	.	.	.	.	.	.	.	.	.	.	.	.	.	.	.	.
.	.	.	16aJJ 16c/	.	16f\JJ	.	.	.	.	.	.	.	.	.	.	.	.	.	.	.	.	.
8C/L	5 3	.	16gLL 16c/	.	16dd\LL	.	2C/	.	.	2g\	-lei-	2b-\	-lei-	.	2c/	.	2g\	.	2b-\	.	2gg\	.
.	.	.	16g 16c/	.	16dd\	.	.	.	.	.	.	.	.	.	.	.	.	.	.	.	.	.
8C/	.	.	16g 16c/	.	16cc\	.	.	.	.	.	.	.	.	.	.	.	.	.	.	.	.	.
.	.	.	16g 16c/	.	16cc\	.	.	.	.	.	.	.	.	.	.	.	.	.	.	.	.	.
8C/	.	.	16g 16c/	.	16cc\	.	.	.	.	.	.	.	.	.	.	.	.	.	.	.	.	.
.	.	.	16g 16c/	.	16cc\	.	.	.	.	.	.	.	.	.	.	.	.	.	.	.	.	.
8C/J	.	.	16g 16c/	.	16e/	.	.	.	.	.	.	.	.	.	.	.	.	.	.	.	.	.
.	.	.	16gJJ 16c/	.	16e/JJ	.	.	.	.	.	.	.	.	.	.	.	.	.	.	.	.	.
*Xtremolo	*	*	*Xtremolo	*	*Xtremolo	*	*	*	*	*	*	*	*	*	*	*	*	*	*	*	*	*
!	!	!	!	!	!	!	!	!	!	!LO:LB:g=original	!	!	!	!	!	!	!	!	!	!	!	!
=73	=73	=73	=73	=73	=73	=73	=73	=73	=73	=73	=73	=73	=73	=73	=73	=73	=73	=73	=73	=73	=73	=73
!	!	!	!	!	!	!	!	!	!	!	!	!	!	!	!	!	!LO:TX:a:t=Solo	!	!	!	!	!
4F\	3	p	4A/	.	4f/	.	4F\	-son	1ryy	4f\	-son	4a\	-son	.	4F/	.	4f\	.	4a/	.	4ff\	p
4r	.	.	4A/	.	4c/	.	4C\	Ki-	.	4r	.	4r	.	.	4C/	.	4c\	.	4a/	.	4cc\	.
4r	.	.	4c/	.	4f/	.	4F\	-ri-	.	2r	.	2r	.	.	4F/	.	4f\	.	4cc\	.	4ff\	.
4F\	.	.	4f/	.	4a/	.	4A\	-e-	.	.	.	.	.	.	4G/	.	4a\	.	4ff\	.	4aa\	.
!	!	!	!	!	!	!	!LO:LB:g=original	!	!	!	!	!	!	!	!	!	!LO:LB:g=original	!	!LO:LB:g=original	!	!	!
=74	=74	=74	=74	=74	=74	=74	=74	=74	=74	=74	=74	=74	=74	=74	=74	=74	=74	=74	=74	=74	=74	=74
4C\	8	.	4a/	.	4cc\	.	2c\	-lei-	1ryy	2a\	e-	4cc\	e-	.	2f\	.	2a\	.	2aa\	.	2ccc\	.
4r	.	.	4r	.	4.ee^<\	.	.	.	.	.	.	4.ee\	.	.	.	.	.	.	.	.	.	.
2C\	7 5	.	2g 2B-/	.	.	.	2C/	.	.	2g\	-lei-	.	.	.	2B-/	.	2g\	.	2gg\	.	2bb-\	.
.	.	.	.	.	(16dd\LL	.	.	.	.	.	.	16dd\LL	.	.	.	.	.	.	.	.	.	.
.	.	.	.	.	16cc\JJ)	.	.	.	.	.	.	16cc\JJ	.	.	.	.	.	.	.	.	.	.
.	.	.	.	.	8a\L	.	.	.	.	.	.	8a\L	-lei-	.	.	.	.	.	.	.	.	.
.	.	.	.	.	(16b-\L	.	.	.	.	.	.	16b-\L	.	.	.	.	.	.	.	.	.	.
.	.	.	.	.	16g\JJ)	.	.	.	.	.	.	16g\JJ	.	.	.	.	.	.	.	.	.	.
!LO:LB:g=original	!	!	!LO:LB:g=original	!	!	!	!	!	!	!	!	!	!	!	!LO:LB:g=original	!	!	!	!	!	!	!
=75	=75	=75	=75	=75	=75	=75	=75	=75	=75	=75	=75	=75	=75	=75	=75	=75	=75	=75	=75	=75	=75	=75
4F\	3_	.	4A/	.	4f/	.	4F\	-son	1ryy	4f\	-son	4f\	-son	.	4A/	.	4f\	.	4ff\	.	4aa\	.
4r	.	.	4A/	.	4A/	.	4AA/	Ki-	.	4r	.	4r	.	.	4F/	.	4A/	.	4f/	.	4a/	.
4r	.	.	4A/	.	4c/	.	4C/	-ri-	.	2r	.	2r	.	.	4A/	.	4c/	.	4a/	.	4cc\	.
4F\	.	.	4c/	.	4f/	.	4F/	-e-	.	.	.	.	.	.	4c/	.	4f\	.	4cc\	.	4ff\	.
!	!	!	!	!	!	!	!	!	!	!	!	!LO:LB:g=original	!	!	!	!	!	!	!	!	!LO:LB:g=original	!
=76	=76	=76	=76	=76	=76	=76	=76	=76	=76	=76	=76	=76	=76	=76	=76	=76	=76	=76	=76	=76	=76	=76
4C\	6	.	4c/	.	4a\	.	(>2C/	-le-	1ryy	2f\	e-	4a\	e-	.	2f\	.	2a\	.	2cc\	.	2aa\	.
4r	.	.	4r	.	4.cc^<\	.	.	.	.	.	.	4.cc\	.	.	.	.	.	.	.	.	.	.
2C\	5	.	2e 2G/	.	.	.	2C/)	-i-	.	2e\	-lei-	.	.	.	2c/	p	2g\	.	2b-\	.	2gg\	.
.	.	.	.	.	16b-\LL	.	.	.	.	.	.	16b-\LL	.	.	.	.	.	.	.	.	.	.
.	.	.	.	.	16a\JJ	.	.	.	.	.	.	16a\JJ	.	.	.	.	.	.	.	.	.	.
!	!	!	!	!	!	!	!	!	!	!	!	!LO:TX:a:t=P:problem=mixed beam	!	!	!	!	!	!	!	!	!	!
.	.	.	.	.	8g\L	.	.	.	.	.	.	8g\L	-lei-	.	.	.	.	.	.	.	.	.
.	.	.	.	.	16a\L	.	.	.	.	.	.	16a\L	.	.	.	.	.	.	.	.	.	.
.	.	.	.	.	16e\JJ	.	.	.	.	.	.	16e/JJ	.	.	.	.	.	.	.	.	.	.
=77	=77	=77	=77	=77	=77	=77	=77	=77	=77	=77	=77	=77	=77	=77	=77	=77	=77	=77	=77	=77	=77	=77
!	!	!	!	!	!	!	!	!	!	!	!	!	!	!	!	!	!	!LO:DY:rj	!	!	!LO:TX:a:t=Solo	!
4F\	3	.	4r	.	4f/	.	4F\	-son	1ryy	4c\	-son	4f/	-so	.	2F/	.	1f	pp	4a/	.	4ff\	.
!	!	!	!	!	!	!	!	!	!	!	!	!	!	!	!	!	!	!	!LO:TX:a:rj:t=Solo	!	!	!
!	!	!	!	!	!	!	!	!	!	!	!	!	!	!	!	!	!	!	!LO:TX:b:t=dolce	!	!	!
4r	.	.	8a/L	.	8.cc\L	.	4r	.	.	4r	.	4r	.	.	.	.	.	.	8.aa\L	.	8.ccc\L	.
.	.	.	8g/J	.	.	.	.	.	.	.	.	.	.	.	.	.	.	.	.	.	.	.
.	.	.	.	.	16cc\Jk	.	.	.	.	.	.	.	.	.	.	.	.	.	16aa\Jk	.	16ccc\Jk	.
4r	.	.	4g#X/	.	4bn\	.	2r	.	.	2r	.	2r	.	.	2F/	.	.	.	4gg#X\	.	4bbn\	.
4F\	3	.	4a/	.	4cc\	.	.	.	.	.	.	.	.	.	.	.	.	.	4aa\	.	4ccc\	.
=78	=78	=78	=78	=78	=78	=78	=78	=78	=78	=78	=78	=78	=78	=78	=78	=78	=78	=78	=78	=78	=78	=78
!	!	!	!	!	!	!	!LO:TX:a:t=3	!	!	!LO:TX:a:t=3	!	!LO:TX:a:t=3	!	!	!	!	!	!	!	!	!	!
4F\	3	.	4r	.	4r	.	0r	.	1ryy	0r	.	0r	.	.	1F	.	1f	.	4r	.	4r	.
4r	.	.	8c/L	.	8.a/L	.	.	.	.	.	.	.	.	.	.	.	.	.	8.cc\L	.	8.aa\L	.
.	.	.	8c/J	.	.	.	.	.	.	.	.	.	.	.	.	.	.	.	.	.	.	.
.	.	.	.	.	16a/Jk	.	.	.	.	.	.	.	.	.	.	.	.	.	16cc\Jk	.	16aa\Jk	.
4r	.	.	4Bn/	.	4g#X/	.	.	.	.	.	.	.	.	.	.	.	.	.	4bn\	.	4gg#X\	.
4F\	3	.	4c/	.	4a/	.	.	.	.	.	.	.	.	.	.	.	.	.	4cc\	.	4aa\	.
!	!	!	!	!	!LO:LB:g=original	!	!	!	!	!	!	!	!	!	!	!	!	!	!	!	!	!
=79	=79	=79	=79	=79	=79	=79	=79	=79	=79	=79	=79	=79	=79	=79	=79	=79	=79	=79	=79	=79	=79	=79
4.F\	3	.	4A/	.	4.f/	.	.	.	1ryy	.	.	.	.	.	4A/	.	4f\	.	4a/	.	4.ff\	.
.	.	.	4r	.	.	.	.	.	.	.	.	.	.	.	4r	.	4r	.	4r	.	.	.
8C\	.	.	.	.	8c/	.	.	.	.	.	.	.	.	.	.	.	.	.	.	.	8cc\	.
4.F\	3	.	4A/	.	4.f/	.	.	.	.	.	.	.	.	.	4A/	.	4f\	.	4a/	.	4.ff\	.
.	.	.	4r	.	.	.	.	.	.	.	.	.	.	.	4r	.	4r	.	4r	.	.	.
!LO:TX:b:i:t=Organo pleno	!	!	!	!	!	!	!	!	!	!	!	!	!	!	!	!	!	!	!	!	!	!
8C\	.	.	.	.	8c/	.	.	.	.	.	.	.	.	.	.	ff	.	.	.	.	8cc\	.
=80	=80	=80	=80	=80	=80	=80	=80	=80	=80	=80	=80	=80	=80	=80	=80	=80	=80	=80	=80	=80	=80	=80
!LO:TX:t=P:problem=nadmiarowa pauza w S,A i B	!	!	!LO:TX:t=P:problem=nadmiarowa pauza w S,A i B	!	!LO:TX:t=P:problem=nadmiarowa pauza w S,A i B	!	!LO:DY:t=P:problem=nadmiarowa pauza	!	!	!LO:DY:t=P:problem=nadmiarowa pauza	!	!LO:DY:t=P:problem=nadmiarowa pauza	!	!	!LO:TX:t=P:problem=nadmiarowa pauza w S,A i B	!	!LO:TX:t=P:problem=nadmiarowa pauza w S,A i B	!	!LO:TX:t=P:problem=nadmiarowa pauza w S,A i B	!	!LO:TX:t=P:problem=nadmiarowa pauza w S,A i B	!
1ryy	.	.	1ryy	.	1ryy	.	1r	.	1ryy	1r	.	1r	.	.	1ryy	.	1ryy	.	1ryy	.	1ryy	.
=81	=81	=81	=81	=81	=81	=81	=81	=81	=81	=81	=81	=81	=81	=81	=81	=81	=81	=81	=81	=81	=81	=81
*tremolo	*	*	*	*	*tremolo	*	*	*	*	*	*	*	*	*	*tremolo	*	*tremolo	*	*	*	*	*
!	!	!LO:DY:a:rj	!LO:TX:a:t=P:problem=mixed beam	!	!LO:TX:a:t=P:problem=mixed beam	!	!	!	!	!	!	!	!	!	!	!	!	!LO:DY:rj	!	!	!	!
8F\L	5 3	ff	8f/L	.	8f/L	.	4F\	Ki-	1ryy	4a\	Ki-	4ff\	Ki-	.	8A/L	.	8f\L	ff	4a\	.	4ff\	ff
8F\	.	.	16ff\L	.	16aa\L	ff	.	.	.	.	.	.	.	.	8A/	.	8f\	.	.	.	.	.
.	.	.	16ff\JJ	.	16aa\	.	.	.	.	.	.	.	.	.	.	.	.	.	.	.	.	.
8F\	.	.	16cc\LL	.	16ff\	.	4F\	-ri-	.	4a\	-ri-	4ff\	-ri-	.	8A/	.	8f\	.	8.cc\L	.	8.aa\L	.
.	.	.	16cc\	.	16ff\	.	.	.	.	.	.	.	.	.	.	.	.	.	.	.	.	.
8F\J	.	.	16a\	.	16cc\	.	.	.	.	.	.	.	.	.	8A/J	.	8f\J	.	.	.	.	.
.	.	.	16a\JJ	.	16cc\JJ	.	.	.	.	.	.	.	.	.	.	.	.	.	16cc\Jk	.	16aa\Jk	.
8F\L	3	.	16f/LL	.	16a\LL	.	4F\	-e	.	4a\	-e	4ff\	-e	.	8A/L	.	8f\L	.	4cc\	.	4aa\	.
.	.	.	16f/	.	16a\	.	.	.	.	.	.	.	.	.	.	.	.	.	.	.	.	.
8F\	.	.	16cc/	.	16ff\	.	.	.	.	.	.	.	.	.	8A/	.	8f\	.	.	.	.	.
.	.	.	16cc/JJ	.	16ff\	.	.	.	.	.	.	.	.	.	.	.	.	.	.	.	.	.
8F\	.	.	16a/LL	.	16cc\	.	4F\	e-	.	4a\	e-	4ff\	e-	.	8A/	.	8f\	.	4cc\	.	4aa\	.
.	.	.	16a/	.	16cc\	.	.	.	.	.	.	.	.	.	.	.	.	.	.	.	.	.
8F\J	.	.	16f/	.	16a\	.	.	.	.	.	.	.	.	.	8A/J	.	8f\J	.	.	.	.	.
.	.	.	16f/JJ	.	16a\JJ	.	.	.	.	.	.	.	.	.	.	.	.	.	.	.	.	.
*Xtremolo	*	*	*	*	*Xtremolo	*	*	*	*	*	*	*	*	*	*Xtremolo	*	*Xtremolo	*	*	*	*	*
=82	=82	=82	=82	=82	=82	=82	=82	=82	=82	=82	=82	=82	=82	=82	=82	=82	=82	=82	=82	=82	=82	=82
4FF/	8_ 5_ 3_	.	4A/	.	4f/	.	1F	-lei-	1ryy	1a	-lei-	1ff	-lei-	.	4A/	.	4f\	.	4cc\	.	4aa\	.
4F\	.	.	4cc 4f/	.	4ff 4a 4f\	.	.	.	.	.	.	.	.	.	4A/	.	4f\	.	4cc\	.	4aa\	.
4C/	.	.	4cc 4f/	.	4ff 4a 4f\	.	.	.	.	.	.	.	.	.	4A/	.	4f\	.	4cc\	.	4aa\	.
4AA/	.	.	4cc 4f/	.	4ff 4a 4f\	.	.	.	.	.	.	.	.	.	4A/	.	4f\	.	4cc\	.	4aa\	.
=83	=83	=83	=83	=83	=83	=83	=83	=83	=83	=83	=83	=83	=83	=83	=83	=83	=83	=83	=83	=83	=83	=83
2FF/	.	.	2cc 2f/	.	2ff 2a 2f\	.	4F\	-son	1ryy	4a\	-son	4ff\	-son	.	2A/	.	2f\	.	2cc\	.	2aa\	.
.	X X X	.	.	.	.	.	4r	.	.	4r	.	4r	.	.	.	.	.	.	.	.	.	.
2r	.	.	2r	.	2r	.	2r	.	.	2r	.	2r	.	.	2r	.	2r	.	2r	.	2r	.
==	==	==	==	==	==	==	==	==	==	==	==	==	==	==	==	==	==	==	==	==	==	==
*-	*-	*-	*-	*-	*-	*-	*-	*-	*-	*-	*-	*-	*-	*-	*-	*-	*-	*-	*-	*-	*-	*-
!!!system-decoration: [(g1)][(g2)][(g3)][(g4)]s11
!!!RDF**kern: > = above
!!!RDF**kern: < = below
!!!ENC: Berenika Jozajtis
!!!END: 2021-11-20
!!!ENC: Marta Lawrence
!!!END: 2021-12-12
